; generated by PrusaSlicer 2.3.0+win64 on 2021-05-23 at 12:40:16 UTC


;
;

;
;
; 

; external perimeters extrusion width = 0.40mm
; perimeters extrusion width = 0.40mm
; infill extrusion width = 0.45mm
; solid infill extrusion width = 0.45mm
; top infill extrusion width = 0.40mm
; first layer extrusion width = 0.42mm

M73 P0 R23
M201 X1250 Y1250 Z400 E5000 ; sets maximum accelerations, mm/sec^2
M203 X180 Y180 Z12 E80 ; sets maximum feedrates, mm/sec
M204 P1250 R1250 T1250 ; sets acceleration (P, T) and retract acceleration (R), mm/sec^2
M205 X8.00 Y8.00 Z2.00 E10.00 ; sets the jerk limits, mm/sec
M205 S0 T0 ; sets the minimum extruding and travel feed rate, mm/sec
M107
;TYPE:Custom
G90 ; use absolute coordinates
M83 ; extruder relative mode
M104 S170 ; set extruder temp for bed leveling
M140 S60 ; set bed temp
M109 R170 ; wait for bed leveling temp
M190 S60 ; wait for bed temp
G28 ; home all without mesh bed level
G29 ; mesh bed leveling 
M104 S215 ; set extruder temp
G92 E0.0
G1 Y-2.0 X179 F2400
M73 P0 R22
G1 Z3 F720
M109 S215 ; wait for extruder temp

; intro line
G1 X170 F1000
G1 Z0.2 F720
G1 X110.0 E8.0 F900
G1 X40.0 E10.0 F700
G92 E0.0

M221 S95 ; set flow
G21 ; set units to millimeters
G90 ; use absolute coordinates
M83 ; use relative distances for extrusion
M900 K0.2 ; Filament gcode LA 1.5
; ; Filament gcode LA 1.0
;LAYER_CHANGE
;Z:0.2
;HEIGHT:0.2
;BEFORE_LAYER_CHANGE
G92 E0.0
;0.2


M73 P1 R22
G1 Z0.200 F9000.000
;AFTER_LAYER_CHANGE
;0.2
G1 E-3.20000 F4200.000
G1 Z0.400 F9000.000
G1 X85.433 Y85.434
G1 Z0.200
G1 E3.20000 F2400.000
M204 S800
;TYPE:Skirt
;WIDTH:0.42
G1 F961
G1 X86.391 Y84.645 E0.03891
G1 X87.648 Y83.987 E0.04450
G1 X88.837 Y83.647 E0.03876
G1 X90.004 Y83.542 E0.03674
G1 X91.235 Y83.662 E0.03876
G1 X92.589 Y84.085 E0.04450
G1 X93.670 Y84.686 E0.03876
G1 X94.566 Y85.433 E0.03660
G1 X95.314 Y86.330 E0.03660
G1 X95.915 Y87.411 E0.03878
G1 X96.339 Y88.769 E0.04462
G1 X96.458 Y90.000 E0.03876
G1 X96.352 Y91.167 E0.03674
G1 X96.013 Y92.352 E0.03864
G1 X95.353 Y93.612 E0.04462
G1 X94.567 Y94.566 E0.03876
G1 X93.667 Y95.316 E0.03674
G1 X92.589 Y95.915 E0.03864
G1 X91.231 Y96.339 E0.04462
G1 X90.000 Y96.458 E0.03876
G1 X88.838 Y96.353 E0.03660
G1 X87.648 Y96.013 E0.03878
G1 X86.392 Y95.355 E0.04448
G1 X85.434 Y94.567 E0.03891
G1 X84.686 Y93.670 E0.03660
G1 X84.085 Y92.589 E0.03878
G1 X83.661 Y91.231 E0.04462
G1 X83.542 Y90.000 E0.03876
G1 X83.648 Y88.833 E0.03674
G1 X83.987 Y87.648 E0.03864
G1 X84.645 Y86.392 E0.04448
G1 X85.395 Y85.480 E0.03702
M204 S1250
G1 X85.683 Y85.720 F9000.000
M204 S800
G1 F961
G1 X86.598 Y84.960 E0.03729
G1 X87.793 Y84.335 E0.04228
G1 X88.909 Y84.018 E0.03637
G1 X90.003 Y83.919 E0.03446
G1 X91.158 Y84.031 E0.03637
G1 X92.445 Y84.433 E0.04228
G1 X93.458 Y84.998 E0.03637
G1 X94.302 Y85.702 E0.03447
G1 X95.040 Y86.598 E0.03638
G1 X95.667 Y87.797 E0.04242
G1 X95.982 Y88.909 E0.03624
G1 X96.081 Y90.003 E0.03447
G1 X95.969 Y91.158 E0.03637
G1 X95.565 Y92.449 E0.04242
G1 X95.002 Y93.458 E0.03624
G1 X94.298 Y94.302 E0.03446
G1 X93.402 Y95.040 E0.03637
G1 X92.207 Y95.665 E0.04229
G1 X91.091 Y95.982 E0.03637
G1 X89.997 Y96.081 E0.03446
G1 X88.842 Y95.969 E0.03637
G1 X87.555 Y95.567 E0.04228
G1 X86.542 Y95.002 E0.03637
G1 X85.698 Y94.298 E0.03446
G1 X84.960 Y93.402 E0.03638
G1 X84.335 Y92.207 E0.04228
G1 X84.018 Y91.091 E0.03637
G1 X83.919 Y89.997 E0.03446
G1 X84.031 Y88.842 E0.03637
G1 X84.434 Y87.555 E0.04228
G1 X84.998 Y86.542 E0.03637
G1 X85.645 Y85.766 E0.03165
M204 S1250
G1 X85.933 Y86.007 F9000.000
M204 S800
G1 F961
G1 X86.805 Y85.275 E0.03570
G1 X87.937 Y84.683 E0.04005
G1 X88.980 Y84.388 E0.03399
G1 X90.003 Y84.296 E0.03220
G1 X91.082 Y84.400 E0.03399
G1 X92.301 Y84.782 E0.04005
G1 X93.247 Y85.310 E0.03399
G1 X94.035 Y85.969 E0.03220
G1 X94.725 Y86.805 E0.03399
G1 X95.317 Y87.937 E0.04004
G1 X95.612 Y88.980 E0.03399
G1 X95.704 Y90.003 E0.03220
G1 X95.600 Y91.082 E0.03399
G1 X95.218 Y92.301 E0.04005
G1 X94.690 Y93.247 E0.03399
G1 X94.031 Y94.035 E0.03220
G1 X93.195 Y94.725 E0.03399
G1 X92.063 Y95.317 E0.04005
G1 X91.020 Y95.612 E0.03399
G1 X89.997 Y95.704 E0.03220
G1 X88.918 Y95.600 E0.03399
G1 X87.699 Y95.218 E0.04005
G1 X86.753 Y94.690 E0.03399
G1 X85.965 Y94.031 E0.03220
G1 X85.275 Y93.195 E0.03399
G1 X84.683 Y92.063 E0.04004
G1 X84.388 Y91.020 E0.03399
G1 X84.296 Y89.997 E0.03220
G1 X84.400 Y88.918 E0.03399
G1 X84.782 Y87.699 E0.04005
G1 X85.310 Y86.753 E0.03399
G1 X85.895 Y86.053 E0.02858
M204 S1250
G1 X86.184 Y86.292 F9000.000
M204 S800
G1 F961
G1 X86.233 Y86.234 E0.00238
G1 X87.013 Y85.590 E0.03173
G1 X88.081 Y85.032 E0.03779
G1 X89.052 Y84.758 E0.03161
G1 X90.003 Y84.673 E0.02995
G1 X91.006 Y84.770 E0.03161
G1 X92.156 Y85.130 E0.03779
G1 X93.036 Y85.623 E0.03161
G1 X93.766 Y86.233 E0.02983
G1 X94.378 Y86.966 E0.02995
G1 X94.870 Y87.844 E0.03154
G1 X95.231 Y88.996 E0.03785
G1 X95.327 Y89.999 E0.03161
G1 X95.242 Y90.950 E0.02995
G1 X94.968 Y91.919 E0.03154
G1 X94.409 Y92.989 E0.03785
G1 X93.767 Y93.766 E0.03161
G1 X93.034 Y94.378 E0.02995
G1 X92.156 Y94.870 E0.03155
G1 X91.004 Y95.231 E0.03785
G1 X90.001 Y95.327 E0.03161
G1 X89.050 Y95.242 E0.02995
G1 X88.081 Y94.968 E0.03154
G1 X87.012 Y94.409 E0.03785
G1 X86.234 Y93.767 E0.03161
G1 X85.622 Y93.034 E0.02995
G1 X85.130 Y92.156 E0.03154
G1 X84.769 Y91.004 E0.03785
G1 X84.673 Y90.001 E0.03161
G1 X84.758 Y89.050 E0.02995
G1 X85.032 Y88.081 E0.03154
G1 X85.591 Y87.012 E0.03785
G1 X86.146 Y86.339 E0.02735
M204 S1250
; printing object Axle, Gear, Floating Pinion.stl id:0 copy 0
G1 E-2.24000 F4200.000
;WIPE_START
G1 F7200.000
G1 X86.233 Y86.234 E-0.07524
G1 X87.013 Y85.590 E-0.56080
G1 X87.455 Y85.359 E-0.27596
;WIPE_END
G1 E-0.04800 F4200.000
G1 Z0.400 F9000.000
G1 X88.445 Y89.126
G1 Z0.200
G1 E3.20000 F2400.000
M204 S800
;TYPE:Perimeter
G1 F961
G1 X88.635 Y88.855 E0.01040
G1 X88.855 Y88.635 E0.00974
G1 X89.227 Y88.392 E0.01394
G1 X89.539 Y88.279 E0.01040
G1 X89.845 Y88.225 E0.00974
G1 X90.155 Y88.225 E0.00974
G1 X90.461 Y88.279 E0.00974
G1 X90.753 Y88.385 E0.00974
G1 X91.022 Y88.540 E0.00974
G1 X91.276 Y88.754 E0.01040
G1 X91.543 Y89.109 E0.01394
G1 X91.675 Y89.391 E0.00974
G1 X91.775 Y89.824 E0.01394
G1 X91.775 Y90.176 E0.01107
G1 X91.675 Y90.609 E0.01394
G1 X91.543 Y90.891 E0.00974
G1 X91.365 Y91.145 E0.00974
G1 X91.040 Y91.449 E0.01394
G1 X90.753 Y91.615 E0.01040
G1 X90.461 Y91.721 E0.00974
G1 X90.155 Y91.775 E0.00974
G1 X89.845 Y91.775 E0.00974
G1 X89.539 Y91.721 E0.00974
G1 X89.126 Y91.555 E0.01394
G1 X88.855 Y91.365 E0.01040
G1 X88.635 Y91.145 E0.00974
G1 X88.392 Y90.773 E0.01394
G1 X88.279 Y90.461 E0.01040
G1 X88.225 Y90.155 E0.00974
G1 X88.225 Y89.845 E0.00974
G1 X88.279 Y89.539 E0.00974
G1 X88.417 Y89.180 E0.01207
M204 S1250
G1 X88.082 Y89.005 F9000.000
M204 S800
G1 F961
G1 X88.345 Y88.611 E0.01485
M73 P2 R22
G1 X88.611 Y88.345 E0.01181
G1 X88.930 Y88.122 E0.01221
G1 X89.075 Y88.046 E0.00511
G1 X89.441 Y87.913 E0.01221
G1 X89.812 Y87.848 E0.01181
G1 X90.188 Y87.848 E0.01181
G1 X90.559 Y87.913 E0.01181
G1 X90.913 Y88.042 E0.01181
G1 X91.239 Y88.230 E0.01181
G1 X91.538 Y88.481 E0.01221
G1 X91.648 Y88.601 E0.00511
G1 X91.871 Y88.920 E0.01221
G1 X92.030 Y89.261 E0.01181
G1 X92.131 Y89.637 E0.01221
G1 X92.152 Y89.799 E0.00511
G1 X92.152 Y90.201 E0.01262
G1 X92.131 Y90.363 E0.00511
G1 X92.030 Y90.739 E0.01221
G1 X91.871 Y91.080 E0.01181
G1 X91.655 Y91.389 E0.01181
G1 X91.380 Y91.664 E0.01221
G1 X91.250 Y91.763 E0.00511
G1 X90.913 Y91.958 E0.01221
G1 X90.559 Y92.087 E0.01181
G1 X90.188 Y92.152 E0.01181
G1 X89.812 Y92.152 E0.01181
G1 X89.441 Y92.087 E0.01181
G1 X89.075 Y91.954 E0.01221
G1 X88.930 Y91.878 E0.00511
G1 X88.611 Y91.655 E0.01221
G1 X88.345 Y91.389 E0.01181
G1 X88.122 Y91.070 E0.01221
G1 X88.046 Y90.925 E0.00511
G1 X87.913 Y90.559 E0.01221
G1 X87.848 Y90.188 E0.01181
G1 X87.848 Y89.812 E0.01181
G1 X87.913 Y89.441 E0.01181
G1 X88.055 Y89.059 E0.01278
M204 S1250
G1 X87.720 Y88.885 F9000.000
M204 S800
;TYPE:External perimeter
G1 F961
G1 X87.799 Y88.734 E0.00531
G1 X88.055 Y88.368 E0.01402
G1 X88.368 Y88.055 E0.01388
G1 X88.734 Y87.799 E0.01402
G1 X88.923 Y87.700 E0.00666
G1 X89.343 Y87.548 E0.01402
G1 X89.779 Y87.471 E0.01388
G1 X90.221 Y87.471 E0.01388
G1 X90.657 Y87.548 E0.01388
G1 X91.073 Y87.699 E0.01388
G1 X91.456 Y87.920 E0.01388
G1 X91.799 Y88.208 E0.01402
G1 X91.942 Y88.364 E0.00666
G1 X92.199 Y88.730 E0.01402
G1 X92.386 Y89.132 E0.01388
G1 X92.502 Y89.564 E0.01402
G1 X92.529 Y89.774 E0.00666
G1 X92.529 Y90.226 E0.01417
G1 X92.502 Y90.436 E0.00666
G1 X92.386 Y90.868 E0.01402
G1 X92.199 Y91.270 E0.01388
G1 X91.945 Y91.632 E0.01388
G1 X91.629 Y91.948 E0.01402
G1 X91.460 Y92.078 E0.00666
G1 X91.073 Y92.301 E0.01402
G1 X90.657 Y92.452 E0.01388
G1 X90.221 Y92.529 E0.01388
G1 X89.779 Y92.529 E0.01388
G1 X89.343 Y92.452 E0.01388
G1 X88.923 Y92.300 E0.01402
G1 X88.734 Y92.201 E0.00666
G1 X88.368 Y91.945 E0.01402
G1 X88.055 Y91.632 E0.01388
G1 X87.799 Y91.266 E0.01402
G1 X87.700 Y91.077 E0.00666
G1 X87.548 Y90.657 E0.01402
G1 X87.471 Y90.221 E0.01388
G1 X87.471 Y89.779 E0.01388
G1 X87.548 Y89.343 E0.01388
G1 X87.695 Y88.939 E0.01349
M204 S1250
G1 X87.889 Y88.865 F9000.000
G1 E-2.24000 F4200.000
;WIPE_START
G1 F7200.000
G1 X87.799 Y88.734 E-0.12707
G1 X88.055 Y88.368 E-0.24782
G1 X88.368 Y88.055 E-0.24526
G1 X88.734 Y87.799 E-0.24782
G1 X88.805 Y87.762 E-0.04404
;WIPE_END
G1 E-0.04800 F4200.000
G1 Z0.400 F9000.000
G1 X91.584 Y89.499
G1 Z0.200
G1 E3.20000 F2400.000
M204 S800
;TYPE:Solid infill
;WIDTH:0.463556
G1 F961
G1 X90.854 Y88.770 E0.03609
G1 X90.633 Y88.642 E0.00893
G1 X90.388 Y88.553 E0.00913
G1 X90.131 Y88.508 E0.00913
G1 X89.997 Y88.508 E0.00467
G1 X91.492 Y90.003 E0.07397
G1 X91.492 Y90.144 E0.00493
G1 X91.407 Y90.512 E0.01322
G1 X89.495 Y88.601 E0.09454
G1 X89.262 Y88.695 E0.00880
G1 X89.105 Y88.805 E0.00672
G1 X91.195 Y90.895 E0.10339
G1 X91.150 Y90.959 E0.00272
G1 X90.899 Y91.194 E0.01204
G1 X88.809 Y89.105 E0.10335
G1 X88.647 Y89.354 E0.01042
G1 X88.598 Y89.488 E0.00499
G1 X90.512 Y91.402 E0.09466
G1 X90.388 Y91.447 E0.00462
G1 X90.131 Y91.492 E0.00913
G1 X90.007 Y91.492 E0.00431
G1 X88.508 Y89.993 E0.07419
G1 X88.508 Y90.131 E0.00483
G1 X88.552 Y90.383 E0.00897
G1 X88.695 Y90.738 E0.01338
G1 X88.781 Y90.860 E0.00523
G1 X89.511 Y91.591 E0.03612
M204 S1250
; stop printing object Axle, Gear, Floating Pinion.stl id:0 copy 0
M106 S84.15
;LAYER_CHANGE
;Z:0.25
;HEIGHT:0.05
;BEFORE_LAYER_CHANGE
G92 E0.0
;0.25


G1 Z0.250 F9000.000
;AFTER_LAYER_CHANGE
;0.25
M104 S210 ; set temperature
G1 E-3.20000 F4200.000
G1 Z0.450 F9000.000
G1 X87.648 Y96.013
G1 Z0.250
G1 E3.20000 F2400.000
;TYPE:Skirt
;WIDTH:0.42
G1 F943
G1 X86.392 Y95.355 E0.01207
G1 X85.434 Y94.567 E0.01056
G1 X84.686 Y93.670 E0.00993
G1 X84.085 Y92.589 E0.01052
G1 X83.661 Y91.231 E0.01211
G1 X83.542 Y90.000 E0.01052
G1 X83.648 Y88.833 E0.00997
G1 X83.987 Y87.648 E0.01048
G1 X84.645 Y86.392 E0.01207
G1 X85.433 Y85.434 E0.01056
G1 X86.391 Y84.645 E0.01056
G1 X87.648 Y83.987 E0.01207
G1 X88.837 Y83.647 E0.01052
G1 X90.004 Y83.542 E0.00997
G1 X91.235 Y83.662 E0.01052
G1 X92.589 Y84.085 E0.01207
G1 X93.670 Y84.686 E0.01052
G1 X94.566 Y85.433 E0.00993
G1 X95.314 Y86.330 E0.00993
G1 X95.915 Y87.411 E0.01052
G1 X96.339 Y88.769 E0.01211
G1 X96.458 Y90.000 E0.01052
G1 X96.352 Y91.167 E0.00997
G1 X96.013 Y92.352 E0.01048
G1 X95.353 Y93.612 E0.01211
G1 X94.567 Y94.566 E0.01052
G1 X93.667 Y95.316 E0.00997
G1 X92.589 Y95.915 E0.01048
G1 X91.231 Y96.339 E0.01211
G1 X90.000 Y96.458 E0.01052
G1 X88.838 Y96.353 E0.00993
G1 X87.706 Y96.030 E0.01001
G1 X87.555 Y95.567 F9000.000
G1 F943
G1 X86.542 Y95.002 E0.00987
G1 X85.698 Y94.298 E0.00935
G1 X84.960 Y93.402 E0.00987
G1 X84.335 Y92.207 E0.01147
G1 X84.018 Y91.091 E0.00987
G1 X83.919 Y89.997 E0.00935
G1 X84.031 Y88.842 E0.00987
G1 X84.434 Y87.555 E0.01147
G1 X84.998 Y86.542 E0.00987
G1 X85.702 Y85.698 E0.00935
G1 X86.598 Y84.960 E0.00987
G1 X87.793 Y84.335 E0.01147
G1 X88.909 Y84.018 E0.00987
G1 X90.003 Y83.919 E0.00935
G1 X91.158 Y84.031 E0.00987
G1 X92.445 Y84.433 E0.01147
G1 X93.458 Y84.998 E0.00987
G1 X94.302 Y85.702 E0.00935
G1 X95.040 Y86.598 E0.00987
G1 X95.667 Y87.797 E0.01151
G1 X95.982 Y88.909 E0.00983
G1 X96.081 Y90.003 E0.00935
G1 X95.969 Y91.158 E0.00987
G1 X95.565 Y92.449 E0.01151
G1 X95.002 Y93.458 E0.00983
G1 X94.298 Y94.302 E0.00935
G1 X93.402 Y95.040 E0.00987
G1 X92.207 Y95.665 E0.01147
G1 X91.091 Y95.982 E0.00987
G1 X89.997 Y96.081 E0.00935
G1 X88.842 Y95.969 E0.00987
G1 X87.612 Y95.584 E0.01096
G1 X87.725 Y95.226 F9000.000
G1 F943
G1 X86.753 Y94.690 E0.00944
G1 X85.965 Y94.031 E0.00874
G1 X85.275 Y93.195 E0.00922
G1 X84.683 Y92.063 E0.01087
G1 X84.388 Y91.020 E0.00922
G1 X84.296 Y89.997 E0.00874
G1 X84.400 Y88.918 E0.00922
G1 X84.782 Y87.699 E0.01087
G1 X85.310 Y86.753 E0.00922
G1 X85.969 Y85.965 E0.00874
G1 X86.805 Y85.275 E0.00922
G1 X87.937 Y84.683 E0.01087
G1 X88.980 Y84.388 E0.00922
G1 X90.003 Y84.296 E0.00874
G1 X91.082 Y84.400 E0.00922
G1 X92.301 Y84.782 E0.01087
G1 X93.247 Y85.310 E0.00922
G1 X94.035 Y85.969 E0.00874
G1 X94.725 Y86.805 E0.00922
G1 X95.317 Y87.937 E0.01087
G1 X95.612 Y88.980 E0.00922
G1 X95.704 Y90.003 E0.00874
G1 X95.600 Y91.082 E0.00922
G1 X95.218 Y92.301 E0.01087
G1 X94.690 Y93.247 E0.00922
G1 X94.031 Y94.035 E0.00874
G1 X93.195 Y94.725 E0.00922
G1 X92.063 Y95.317 E0.01087
G1 X91.020 Y95.612 E0.00922
G1 X89.997 Y95.704 E0.00874
G1 X88.918 Y95.600 E0.00922
G1 X87.782 Y95.244 E0.01013
G1 X88.081 Y94.968 F9000.000
G1 F943
G1 X87.012 Y94.409 E0.01027
G1 X86.234 Y93.767 E0.00858
G1 X85.622 Y93.034 E0.00813
G1 X85.130 Y92.156 E0.00856
G1 X84.769 Y91.004 E0.01027
G1 X84.673 Y90.001 E0.00858
G1 X84.758 Y89.050 E0.00813
G1 X85.032 Y88.081 E0.00856
G1 X85.591 Y87.012 E0.01027
G1 X86.233 Y86.234 E0.00858
G1 X87.013 Y85.590 E0.00861
G1 X88.081 Y85.032 E0.01025
G1 X89.052 Y84.758 E0.00858
G1 X90.003 Y84.673 E0.00813
G1 X91.006 Y84.770 E0.00858
G1 X92.156 Y85.130 E0.01025
G1 X93.036 Y85.623 E0.00858
G1 X93.766 Y86.233 E0.00809
G1 X94.378 Y86.966 E0.00813
G1 X94.870 Y87.844 E0.00856
G1 X95.231 Y88.996 E0.01027
G1 X95.327 Y89.999 E0.00858
G1 X95.242 Y90.950 E0.00813
G1 X94.968 Y91.919 E0.00856
G1 X94.409 Y92.989 E0.01027
G1 X93.767 Y93.766 E0.00858
G1 X93.034 Y94.378 E0.00813
G1 X92.156 Y94.870 E0.00856
G1 X91.004 Y95.231 E0.01027
G1 X90.001 Y95.327 E0.00858
G1 X89.050 Y95.242 E0.00813
G1 X88.139 Y94.985 E0.00805
; printing object Axle, Gear, Floating Pinion.stl id:0 copy 0
G1 E-2.24000 F4200.000
;WIPE_START
M73 P3 R22
G1 F7200.000
G1 X87.012 Y94.409 E-0.70160
G1 X86.719 Y94.167 E-0.21040
;WIPE_END
G1 E-0.04800 F4200.000
G1 Z0.450 F9000.000
G1 X89.841 Y91.963
G1 Z0.250
G1 E3.20000 F2400.000
M204 S300
;TYPE:Perimeter
;WIDTH:0.4
G1 F900.000
G1 X89.491 Y91.901 E0.00288
G1 X89.168 Y91.783 E0.00278
G1 X88.871 Y91.612 E0.00278
G1 X88.609 Y91.391 E0.00278
G1 X88.389 Y91.130 E0.00276
G1 X88.213 Y90.823 E0.00286
G1 X88.064 Y90.363 E0.00391
G1 X88.031 Y89.980 E0.00311
G1 X88.037 Y89.841 E0.00113
G1 X88.099 Y89.491 E0.00288
G1 X88.217 Y89.168 E0.00278
G1 X88.388 Y88.871 E0.00278
G1 X88.621 Y88.593 E0.00294
G1 X88.724 Y88.500 E0.00113
G1 X89.016 Y88.296 E0.00288
G1 X89.327 Y88.151 E0.00278
G1 X89.657 Y88.063 E0.00276
G1 X90.009 Y88.033 E0.00286
G1 X90.489 Y88.092 E0.00391
G1 X90.832 Y88.217 E0.00295
G1 X91.129 Y88.388 E0.00278
G1 X91.408 Y88.622 E0.00295
G1 X91.704 Y89.016 E0.00399
G1 X91.849 Y89.327 E0.00278
G1 X91.938 Y89.658 E0.00278
G1 X91.968 Y90.000 E0.00278
G1 X91.938 Y90.342 E0.00278
G1 X91.849 Y90.673 E0.00278
G1 X91.704 Y90.984 E0.00278
G1 X91.408 Y91.378 E0.00399
G1 X91.130 Y91.611 E0.00294
G1 X90.823 Y91.787 E0.00286
G1 X90.363 Y91.936 E0.00391
G1 X89.901 Y91.966 E0.00375
M204 S1250
G1 X89.883 Y92.355 F9000.000
M204 S300
G1 F900.000
G1 X89.390 Y92.278 E0.00404
G1 X89.003 Y92.138 E0.00333
G1 X88.647 Y91.932 E0.00333
G1 X88.332 Y91.668 E0.00333
G1 X88.069 Y91.353 E0.00332
G1 X87.859 Y90.988 E0.00341
G1 X87.718 Y90.599 E0.00335
G1 X87.678 Y90.422 E0.00146
G1 X87.640 Y89.988 E0.00353
G1 X87.649 Y89.798 E0.00154
G1 X87.722 Y89.390 E0.00335
G1 X87.862 Y89.003 E0.00333
G1 X88.068 Y88.647 E0.00333
G1 X88.340 Y88.323 E0.00342
G1 X88.481 Y88.195 E0.00154
G1 X88.821 Y87.958 E0.00335
