; generated by PrusaSlicer 2.3.0+win64 on 2021-05-23 at 12:37:53 UTC


;
;

;
;
; 

; external perimeters extrusion width = 0.40mm
; perimeters extrusion width = 0.40mm
; infill extrusion width = 0.45mm
; solid infill extrusion width = 0.45mm
; top infill extrusion width = 0.40mm
; first layer extrusion width = 0.42mm

M73 P0 R47
M201 X1250 Y1250 Z400 E5000 ; sets maximum accelerations, mm/sec^2
M203 X180 Y180 Z12 E80 ; sets maximum feedrates, mm/sec
M204 P1250 R1250 T1250 ; sets acceleration (P, T) and retract acceleration (R), mm/sec^2
M205 X8.00 Y8.00 Z2.00 E10.00 ; sets the jerk limits, mm/sec
M205 S0 T0 ; sets the minimum extruding and travel feed rate, mm/sec
M107
;TYPE:Custom
G90 ; use absolute coordinates
M83 ; extruder relative mode
M104 S170 ; set extruder temp for bed leveling
M140 S60 ; set bed temp
M109 R170 ; wait for bed leveling temp
M190 S60 ; wait for bed temp
G28 ; home all without mesh bed level
G29 ; mesh bed leveling 
M104 S215 ; set extruder temp
G92 E0.0
G1 Y-2.0 X179 F2400
G1 Z3 F720
M109 S215 ; wait for extruder temp

; intro line
G1 X170 F1000
G1 Z0.2 F720
G1 X110.0 E8.0 F900
G1 X40.0 E10.0 F700
G92 E0.0

M221 S95 ; set flow
G21 ; set units to millimeters
G90 ; use absolute coordinates
M83 ; use relative distances for extrusion
M900 K0.2 ; Filament gcode LA 1.5
; ; Filament gcode LA 1.0
;LAYER_CHANGE
;Z:0.2
;HEIGHT:0.2
;BEFORE_LAYER_CHANGE
G92 E0.0
;0.2


G1 Z0.200 F9000.000
;AFTER_LAYER_CHANGE
;0.2
G1 E-3.20000 F4200.000
G1 Z0.400 F9000.000
G1 X94.139 Y61.097
G1 Z0.200
G1 E3.20000 F2400.000
M204 S800
;TYPE:Skirt
;WIDTH:0.42
G1 F1200.000
G1 X94.895 Y61.587 E0.02825
G1 X95.415 Y62.323 E0.02825
G1 X95.622 Y63.200 E0.02825
G1 X95.609 Y116.974 E1.68604
G1 X95.415 Y117.676 E0.02284
G1 X95.018 Y118.286 E0.02284
G1 X94.454 Y118.748 E0.02284
G1 X93.777 Y119.017 E0.02284
G1 X93.260 Y119.077 E0.01633
G1 X86.479 Y119.061 E0.21262
G1 X85.674 Y118.818 E0.02637
G1 X85.006 Y118.313 E0.02626
G1 X84.555 Y117.607 E0.02626
G1 X84.377 Y116.789 E0.02626
G1 X84.391 Y63.026 E1.68568
G1 X84.583 Y62.328 E0.02272
G1 X84.977 Y61.719 E0.02272
G1 X85.533 Y61.260 E0.02260
G1 X86.204 Y60.987 E0.02272
G1 X86.732 Y60.923 E0.01669
G1 X93.251 Y60.923 E0.20440
G1 X94.080 Y61.085 E0.02649
M204 S1250
; printing object Axle.stl id:0 copy 0
G1 E-2.24000 F4200.000
;WIPE_START
G1 F7200.000
G1 X94.895 Y61.587 E-0.53033
G1 X95.292 Y62.150 E-0.38167
;WIPE_END
G1 E-0.04800 F4200.000
G1 Z0.400 F9000.000
G1 X91.931 Y64.464
G1 Z0.200
G1 E3.20000 F2400.000
M204 S800
;TYPE:Perimeter
G1 F1200.000
G1 X91.931 Y115.536 E1.60132
G1 X88.069 Y115.536 E0.12110
G1 X88.069 Y64.464 E1.60132
M73 P1 R47
G1 X91.871 Y64.464 E0.11922
M204 S1250
G1 X92.308 Y64.087 F9000.000
M204 S800
G1 F1200.000
G1 X92.308 Y115.913 E1.62496
G1 X87.692 Y115.913 E0.14474
G1 X87.692 Y64.087 E1.62496
G1 X92.248 Y64.087 E0.14286
M204 S1250
G1 X92.685 Y63.710 F9000.000
M204 S800
;TYPE:External perimeter
G1 F1200.000
G1 X92.685 Y116.290 E1.64861
M73 P1 R46
G1 X87.315 Y116.290 E0.16839
G1 X87.315 Y63.710 E1.64861
G1 X92.625 Y63.710 E0.16651
M204 S1250
G1 X92.672 Y64.110 F9000.000
G1 E-2.24000 F4200.000
;WIPE_START
G1 F7200.000
G1 X92.627 Y65.356 E-0.91200
;WIPE_END
G1 E-0.04800 F4200.000
G1 Z0.400 F9000.000
G1 X91.053 Y64.577
G1 Z0.200
G1 E3.20000 F2400.000
M204 S800
;TYPE:Solid infill
;WIDTH:0.421131
G1 F1200.000
G1 X91.648 Y65.172 E0.02646
G1 X91.648 Y65.707 E0.01682
G1 X90.688 Y64.747 E0.04270
G1 X90.153 Y64.747 E0.01682
G1 X91.648 Y66.242 E0.06649
G1 X91.648 Y66.777 E0.01682
G1 X89.618 Y64.747 E0.09028
G1 X89.084 Y64.747 E0.01682
G1 X91.648 Y67.312 E0.11407
G1 X91.648 Y67.847 E0.01682
G1 X88.549 Y64.747 E0.13786
G1 X88.352 Y64.747 E0.00620
G1 X88.352 Y65.085 E0.01063
G1 X91.648 Y68.381 E0.14662
G1 X91.648 Y68.916 E0.01682
G1 X88.352 Y65.620 E0.14662
G1 X88.352 Y66.155 E0.01682
G1 X91.648 Y69.451 E0.14662
G1 X91.648 Y69.986 E0.01682
G1 X88.352 Y66.689 E0.14662
G1 X88.352 Y67.224 E0.01682
G1 X91.648 Y70.521 E0.14662
G1 X91.648 Y71.056 E0.01682
G1 X88.352 Y67.759 E0.14662
G1 X88.352 Y68.294 E0.01682
G1 X91.648 Y71.591 E0.14662
G1 X91.648 Y72.126 E0.01682
G1 X88.352 Y68.829 E0.14662
G1 X88.352 Y69.364 E0.01682
G1 X91.648 Y72.660 E0.14662
G1 X91.648 Y73.195 E0.01682
G1 X88.352 Y69.899 E0.14662
G1 X88.352 Y70.434 E0.01682
G1 X91.648 Y73.730 E0.14662
G1 X91.648 Y74.265 E0.01682
G1 X88.352 Y70.968 E0.14662
G1 X88.352 Y71.503 E0.01682
G1 X91.648 Y74.800 E0.14662
G1 X91.648 Y75.335 E0.01682
G1 X88.352 Y72.038 E0.14662
G1 X88.352 Y72.573 E0.01682
G1 X91.648 Y75.870 E0.14662
G1 X91.648 Y76.405 E0.01682
G1 X88.352 Y73.108 E0.14662
G1 X88.352 Y73.643 E0.01682
G1 X91.648 Y76.939 E0.14662
G1 X91.648 Y77.474 E0.01682
G1 X88.352 Y74.178 E0.14662
G1 X88.352 Y74.712 E0.01682
G1 X91.648 Y78.009 E0.14662
G1 X91.648 Y78.544 E0.01682
G1 X88.352 Y75.247 E0.14662
G1 X88.352 Y75.782 E0.01682
G1 X91.648 Y79.079 E0.14662
G1 X91.648 Y79.614 E0.01682
G1 X88.352 Y76.317 E0.14662
G1 X88.352 Y76.852 E0.01682
G1 X91.648 Y80.149 E0.14662
G1 X91.648 Y80.684 E0.01682
G1 X88.352 Y77.387 E0.14662
G1 X88.352 Y77.922 E0.01682
G1 X91.648 Y81.218 E0.14662
G1 X91.648 Y81.753 E0.01682
G1 X88.352 Y78.457 E0.14662
G1 X88.352 Y78.991 E0.01682
G1 X91.648 Y82.288 E0.14662
G1 X91.648 Y82.823 E0.01682
G1 X88.352 Y79.526 E0.14662
G1 X88.352 Y80.061 E0.01682
G1 X91.648 Y83.358 E0.14662
G1 X91.648 Y83.893 E0.01682
G1 X88.352 Y80.596 E0.14662
G1 X88.352 Y81.131 E0.01682
G1 X91.648 Y84.428 E0.14662
G1 X91.648 Y84.962 E0.01682
G1 X88.352 Y81.666 E0.14662
G1 X88.352 Y82.201 E0.01682
G1 X91.648 Y85.497 E0.14662
G1 X91.648 Y86.032 E0.01682
G1 X88.352 Y82.736 E0.14662
G1 X88.352 Y83.270 E0.01682
G1 X91.648 Y86.567 E0.14662
G1 X91.648 Y87.102 E0.01682
G1 X88.352 Y83.805 E0.14662
G1 X88.352 Y84.340 E0.01682
G1 X91.648 Y87.637 E0.14662
G1 X91.648 Y88.172 E0.01682
G1 X88.352 Y84.875 E0.14662
G1 X88.352 Y85.410 E0.01682
G1 X91.648 Y88.707 E0.14662
G1 X91.648 Y89.241 E0.01682
G1 X88.352 Y85.945 E0.14662
G1 X88.352 Y86.480 E0.01682
G1 X91.648 Y89.776 E0.14662
G1 X91.648 Y90.311 E0.01682
G1 X88.352 Y87.015 E0.14662
G1 X88.352 Y87.549 E0.01682
G1 X91.648 Y90.846 E0.14662
G1 X91.648 Y91.381 E0.01682
G1 X88.352 Y88.084 E0.14662
G1 X88.352 Y88.619 E0.01682
G1 X91.648 Y91.916 E0.14662
G1 X91.648 Y92.451 E0.01682
G1 X88.352 Y89.154 E0.14662
G1 X88.352 Y89.689 E0.01682
G1 X91.648 Y92.986 E0.14662
G1 X91.648 Y93.520 E0.01682
G1 X88.352 Y90.224 E0.14662
G1 X88.352 Y90.759 E0.01682
G1 X91.648 Y94.055 E0.14662
G1 X91.648 Y94.590 E0.01682
G1 X88.352 Y91.294 E0.14662
G1 X88.352 Y91.828 E0.01682
G1 X91.648 Y95.125 E0.14662
G1 X91.648 Y95.660 E0.01682
G1 X88.352 Y92.363 E0.14662
G1 X88.352 Y92.898 E0.01682
G1 X91.648 Y96.195 E0.14662
M73 P2 R46
G1 X91.648 Y96.730 E0.01682
G1 X88.352 Y93.433 E0.14662
G1 X88.352 Y93.968 E0.01682
G1 X91.648 Y97.265 E0.14662
G1 X91.648 Y97.799 E0.01682
G1 X88.352 Y94.503 E0.14662
G1 X88.352 Y95.038 E0.01682
G1 X91.648 Y98.334 E0.14662
G1 X91.648 Y98.869 E0.01682
G1 X88.352 Y95.572 E0.14662
G1 X88.352 Y96.107 E0.01682
G1 X91.648 Y99.404 E0.14662
G1 X91.648 Y99.939 E0.01682
G1 X88.352 Y96.642 E0.14662
G1 X88.352 Y97.177 E0.01682
G1 X91.648 Y100.474 E0.14662
G1 X91.648 Y101.009 E0.01682
G1 X88.352 Y97.712 E0.14662
G1 X88.352 Y98.247 E0.01682
G1 X91.648 Y101.543 E0.14662
G1 X91.648 Y102.078 E0.01682
G1 X88.352 Y98.782 E0.14662
G1 X88.352 Y99.317 E0.01682
G1 X91.648 Y102.613 E0.14662
G1 X91.648 Y103.148 E0.01682
G1 X88.352 Y99.851 E0.14662
G1 X88.352 Y100.386 E0.01682
G1 X91.648 Y103.683 E0.14662
G1 X91.648 Y104.218 E0.01682
G1 X88.352 Y100.921 E0.14662
G1 X88.352 Y101.456 E0.01682
G1 X91.648 Y104.753 E0.14662
G1 X91.648 Y105.288 E0.01682
G1 X88.352 Y101.991 E0.14662
G1 X88.352 Y102.526 E0.01682
G1 X91.648 Y105.822 E0.14662
G1 X91.648 Y106.357 E0.01682
G1 X88.352 Y103.061 E0.14662
G1 X88.352 Y103.596 E0.01682
G1 X91.648 Y106.892 E0.14662
G1 X91.648 Y107.427 E0.01682
G1 X88.352 Y104.130 E0.14662
G1 X88.352 Y104.665 E0.01682
G1 X91.648 Y107.962 E0.14662
G1 X91.648 Y108.497 E0.01682
G1 X88.352 Y105.200 E0.14662
G1 X88.352 Y105.735 E0.01682
G1 X91.648 Y109.032 E0.14662
G1 X91.648 Y109.567 E0.01682
G1 X88.352 Y106.270 E0.14662
G1 X88.352 Y106.805 E0.01682
G1 X91.648 Y110.101 E0.14662
G1 X91.648 Y110.636 E0.01682
G1 X88.352 Y107.340 E0.14662
G1 X88.352 Y107.875 E0.01682
G1 X91.648 Y111.171 E0.14662
G1 X91.648 Y111.706 E0.01682
G1 X88.352 Y108.409 E0.14662
G1 X88.352 Y108.944 E0.01682
G1 X91.648 Y112.241 E0.14662
G1 X91.648 Y112.776 E0.01682
G1 X88.352 Y109.479 E0.14662
G1 X88.352 Y110.014 E0.01682
G1 X91.648 Y113.311 E0.14662
G1 X91.648 Y113.846 E0.01682
G1 X88.352 Y110.549 E0.14662
G1 X88.352 Y111.084 E0.01682
G1 X91.648 Y114.380 E0.14662
G1 X91.648 Y114.915 E0.01682
G1 X88.352 Y111.619 E0.14662
G1 X88.352 Y112.153 E0.01682
G1 X91.451 Y115.253 E0.13785
G1 X90.916 Y115.253 E0.01682
G1 X88.352 Y112.688 E0.11406
G1 X88.352 Y113.223 E0.01682
G1 X90.381 Y115.253 E0.09028
G1 X89.847 Y115.253 E0.01682
G1 X88.352 Y113.758 E0.06649
G1 X88.352 Y114.293 E0.01682
G1 X89.312 Y115.253 E0.04270
G1 X88.777 Y115.253 E0.01682
G1 X88.182 Y114.658 E0.02646
M204 S1250
; stop printing object Axle.stl id:0 copy 0
M106 S84.15
;LAYER_CHANGE
;Z:0.25
;HEIGHT:0.05
;BEFORE_LAYER_CHANGE
G92 E0.0
;0.25


G1 Z0.250 F9000.000
;AFTER_LAYER_CHANGE
;0.25
M104 S210 ; set temperature
G1 E-3.20000 F4200.000
G1 Z0.450 F9000.000
G1 X84.555 Y117.607
G1 Z0.250
G1 E3.20000 F2400.000
;TYPE:Skirt
;WIDTH:0.42
G1 X84.377 Y116.789 E0.00712
G1 X84.391 Y63.026 E0.45740
G1 X84.583 Y62.328 E0.00617
G1 X84.977 Y61.719 E0.00617
G1 X85.533 Y61.260 E0.00613
G1 X86.204 Y60.987 E0.00617
G1 X86.732 Y60.923 E0.00453
G1 X93.251 Y60.923 E0.05546
G1 X94.139 Y61.097 E0.00770
G1 X94.895 Y61.587 E0.00767
G1 X95.415 Y62.323 E0.00767
G1 X95.622 Y63.200 E0.00767
G1 X95.609 Y116.974 E0.45749
G1 X95.415 Y117.676 E0.00620
G1 X95.018 Y118.286 E0.00620
G1 X94.454 Y118.748 E0.00620
G1 X93.777 Y119.017 E0.00620
G1 X93.260 Y119.077 E0.00443
G1 X86.479 Y119.061 E0.05769
G1 X85.674 Y118.818 E0.00716
G1 X85.006 Y118.313 E0.00712
G1 X84.587 Y117.657 E0.00661
; printing object Axle.stl id:0 copy 0
G1 E-2.24000 F4200.000
;WIPE_START
G1 F7200.000
G1 X84.377 Y116.789 E-0.49538
G1 X84.377 Y116.037 E-0.41662
;WIPE_END
G1 E-0.04800 F4200.000
G1 Z0.450 F9000.000
G1 X87.775 Y115.721
G1 Z0.250
G1 E3.20000 F2400.000
M204 S300
;TYPE:Perimeter
;WIDTH:0.4
G1 F1800.000
G1 X87.775 Y64.279 E0.41628
G1 X92.225 Y64.279 E0.03602
G1 X92.225 Y115.721 E0.41628
G1 X87.835 Y115.721 E0.03553
M204 S1250
G1 X87.385 Y116.111 F9000.000
M204 S300
G1 F1800.000
G1 X87.385 Y63.889 E0.42258
G1 X92.615 Y63.889 E0.04232
G1 X92.615 Y116.111 E0.42258
G1 X87.445 Y116.111 E0.04183
M204 S1250
G1 X86.996 Y116.500 F9000.000
M204 S300
;TYPE:External perimeter
G1 F1200.000
G1 X86.996 Y63.500 E0.42888
G1 X93.004 Y63.500 E0.04862
G1 X93.004 Y116.500 E0.42888
M73 P3 R46
G1 X87.056 Y116.500 E0.04813
M204 S1250
G1 X87.011 Y116.100 F9000.000
G1 E-2.24000 F4200.000
;WIPE_START
G1 F7200.000
G1 X87.054 Y114.854 E-0.91200
;WIPE_END
G1 E-0.04800 F4200.000
G1 Z0.450 F9000.000
G1 X88.779 Y64.392
G1 Z0.250
G1 E3.20000 F2400.000
M204 S1000
;TYPE:Solid infill
;WIDTH:0.451914
G1 F1800.000
G1 X88.085 Y65.086 E0.00900
G1 X88.085 Y65.710 E0.00572
G1 X89.206 Y64.589 E0.01453
G1 X89.830 Y64.589 E0.00572
G1 X88.085 Y66.334 E0.02263
G1 X88.085 Y66.958 E0.00572
G1 X90.454 Y64.589 E0.03072
G1 X91.077 Y64.589 E0.00572
G1 X88.085 Y67.582 E0.03881
G1 X88.085 Y68.205 E0.00572
G1 X91.701 Y64.589 E0.04690
G1 X91.915 Y64.589 E0.00196
G1 X91.915 Y65.000 E0.00377
G1 X88.085 Y68.829 E0.04967
G1 X88.085 Y69.453 E0.00572
G1 X91.915 Y65.624 E0.04967
G1 X91.915 Y66.248 E0.00572
G1 X88.085 Y70.077 E0.04967
G1 X88.085 Y70.701 E0.00572
G1 X91.915 Y66.872 E0.04967
G1 X91.915 Y67.496 E0.00572
G1 X88.085 Y71.325 E0.04967
G1 X88.085 Y71.949 E0.00572
G1 X91.915 Y68.119 E0.04967
G1 X91.915 Y68.743 E0.00572
G1 X88.085 Y72.573 E0.04967
G1 X88.085 Y73.197 E0.00572
G1 X91.915 Y69.367 E0.04967
G1 X91.915 Y69.991 E0.00572
G1 X88.085 Y73.821 E0.04967
G1 X88.085 Y74.445 E0.00572
G1 X91.915 Y70.615 E0.04967
G1 X91.915 Y71.239 E0.00572
G1 X88.085 Y75.069 E0.04967
G1 X88.085 Y75.693 E0.00572
G1 X91.915 Y71.863 E0.04967
G1 X91.915 Y72.487 E0.00572
G1 X88.085 Y76.317 E0.04967
G1 X88.085 Y76.940 E0.00572
G1 X91.915 Y73.111 E0.04967
G1 X91.915 Y73.735 E0.00572
G1 X88.085 Y77.564 E0.04967
G1 X88.085 Y78.188 E0.00572
G1 X91.915 Y74.359 E0.04967
G1 X91.915 Y74.983 E0.00572
G1 X88.085 Y78.812 E0.04967
G1 X88.085 Y79.436 E0.00572
G1 X91.915 Y75.607 E0.04967
G1 X91.915 Y76.231 E0.00572
G1 X88.085 Y80.060 E0.04967
G1 X88.085 Y80.684 E0.00572
G1 X91.915 Y76.854 E0.04967
G1 X91.915 Y77.478 E0.00572
G1 X88.085 Y81.308 E0.04967
G1 X88.085 Y81.932 E0.00572
G1 X91.915 Y78.102 E0.04967
G1 X91.915 Y78.726 E0.00572
G1 X88.085 Y82.556 E0.04967
G1 X88.085 Y83.180 E0.00572
G1 X91.915 Y79.350 E0.04967
G1 X91.915 Y79.974 E0.00572
G1 X88.085 Y83.804 E0.04967
G1 X88.085 Y84.428 E0.00572
G1 X91.915 Y80.598 E0.04967
G1 X91.915 Y81.222 E0.00572
G1 X88.085 Y85.052 E0.04967
G1 X88.085 Y85.675 E0.00572
G1 X91.915 Y81.846 E0.04967
G1 X91.915 Y82.470 E0.00572
G1 X88.085 Y86.299 E0.04967
G1 X88.085 Y86.923 E0.00572
G1 X91.915 Y83.094 E0.04967
G1 X91.915 Y83.718 E0.00572
G1 X88.085 Y87.547 E0.04967
G1 X88.085 Y88.171 E0.00572
G1 X91.915 Y84.342 E0.04967
G1 X91.915 Y84.966 E0.00572
G1 X88.085 Y88.795 E0.04967
G1 X88.085 Y89.419 E0.00572
G1 X91.915 Y85.589 E0.04967
G1 X91.915 Y86.213 E0.00572
G1 X88.085 Y90.043 E0.04967
M73 P3 R45
G1 X88.085 Y90.667 E0.00572
G1 X91.915 Y86.837 E0.04967
G1 X91.915 Y87.461 E0.00572
G1 X88.085 Y91.291 E0.04967
G1 X88.085 Y91.915 E0.00572
G1 X91.915 Y88.085 E0.04967
G1 X91.915 Y88.709 E0.00572
G1 X88.085 Y92.539 E0.04967
G1 X88.085 Y93.163 E0.00572
G1 X91.915 Y89.333 E0.04967
G1 X91.915 Y89.957 E0.00572
G1 X88.085 Y93.787 E0.04967
G1 X88.085 Y94.410 E0.00572
G1 X91.915 Y90.581 E0.04967
G1 X91.915 Y91.205 E0.00572
G1 X88.085 Y95.034 E0.04967
G1 X88.085 Y95.658 E0.00572
G1 X91.915 Y91.829 E0.04967
G1 X91.915 Y92.453 E0.00572
G1 X88.085 Y96.282 E0.04967
G1 X88.085 Y96.906 E0.00572
G1 X91.915 Y93.077 E0.04967
G1 X91.915 Y93.701 E0.00572
G1 X88.085 Y97.530 E0.04967
G1 X88.085 Y98.154 E0.00572
G1 X91.915 Y94.324 E0.04967
G1 X91.915 Y94.948 E0.00572
G1 X88.085 Y98.778 E0.04967
G1 X88.085 Y99.402 E0.00572
G1 X91.915 Y95.572 E0.04967
G1 X91.915 Y96.196 E0.00572
G1 X88.085 Y100.026 E0.04967
G1 X88.085 Y100.650 E0.00572
G1 X91.915 Y96.820 E0.04967
G1 X91.915 Y97.444 E0.00572
G1 X88.085 Y101.274 E0.04967
G1 X88.085 Y101.898 E0.00572
G1 X91.915 Y98.068 E0.04967
G1 X91.915 Y98.692 E0.00572
G1 X88.085 Y102.522 E0.04967
G1 X88.085 Y103.145 E0.00572
G1 X91.915 Y99.316 E0.04967
G1 X91.915 Y99.940 E0.00572
G1 X88.085 Y103.769 E0.04967
G1 X88.085 Y104.393 E0.00572
G1 X91.915 Y100.564 E0.04967
G1 X91.915 Y101.188 E0.00572
G1 X88.085 Y105.017 E0.04967
G1 X88.085 Y105.641 E0.00572
G1 X91.915 Y101.812 E0.04967
G1 X91.915 Y102.435 E0.00572
G1 X88.085 Y106.265 E0.04967
G1 X88.085 Y106.889 E0.00572
G1 X91.915 Y103.059 E0.04967
G1 X91.915 Y103.683 E0.00572
G1 X88.085 Y107.513 E0.04967
G1 X88.085 Y108.137 E0.00572
G1 X91.915 Y104.307 E0.04967
G1 X91.915 Y104.931 E0.00572
G1 X88.085 Y108.761 E0.04967
G1 X88.085 Y109.385 E0.00572
G1 X91.915 Y105.555 E0.04967
G1 X91.915 Y106.179 E0.00572
G1 X88.085 Y110.009 E0.04967
G1 X88.085 Y110.633 E0.00572
G1 X91.915 Y106.803 E0.04967
G1 X91.915 Y107.427 E0.00572
G1 X88.085 Y111.257 E0.04967
G1 X88.085 Y111.880 E0.00572
G1 X91.915 Y108.051 E0.04967
G1 X91.915 Y108.675 E0.00572
G1 X88.085 Y112.504 E0.04967
G1 X88.085 Y113.128 E0.00572
G1 X91.915 Y109.299 E0.04967
G1 X91.915 Y109.923 E0.00572
G1 X88.085 Y113.752 E0.04967
G1 X88.085 Y114.376 E0.00572
G1 X91.915 Y110.547 E0.04967
G1 X91.915 Y111.170 E0.00572
G1 X88.085 Y115.000 E0.04967
G1 X88.085 Y115.411 E0.00377
G1 X88.298 Y115.411 E0.00196
G1 X91.915 Y111.794 E0.04690
G1 X91.915 Y112.418 E0.00572
G1 X88.922 Y115.411 E0.03881
G1 X89.546 Y115.411 E0.00572
G1 X91.915 Y113.042 E0.03072
G1 X91.915 Y113.666 E0.00572
G1 X90.170 Y115.411 E0.02263
G1 X90.794 Y115.411 E0.00572
G1 X91.915 Y114.290 E0.01453
G1 X91.915 Y114.914 E0.00572
