; generated by PrusaSlicer 2.3.0+win64 on 2021-05-23 at 12:35:36 UTC


;
;

;
;
; 

; external perimeters extrusion width = 0.40mm
; perimeters extrusion width = 0.40mm
; infill extrusion width = 0.45mm
; solid infill extrusion width = 0.45mm
; top infill extrusion width = 0.40mm
; first layer extrusion width = 0.42mm

M73 P0 R40
M201 X1250 Y1250 Z400 E5000 ; sets maximum accelerations, mm/sec^2
M203 X180 Y180 Z12 E80 ; sets maximum feedrates, mm/sec
M204 P1250 R1250 T1250 ; sets acceleration (P, T) and retract acceleration (R), mm/sec^2
M205 X8.00 Y8.00 Z2.00 E10.00 ; sets the jerk limits, mm/sec
M205 S0 T0 ; sets the minimum extruding and travel feed rate, mm/sec
M107
;TYPE:Custom
G90 ; use absolute coordinates
M83 ; extruder relative mode
M104 S170 ; set extruder temp for bed leveling
M140 S60 ; set bed temp
M109 R170 ; wait for bed leveling temp
M190 S60 ; wait for bed temp
G28 ; home all without mesh bed level
G29 ; mesh bed leveling 
M104 S215 ; set extruder temp
G92 E0.0
G1 Y-2.0 X179 F2400
G1 Z3 F720
M109 S215 ; wait for extruder temp

; intro line
G1 X170 F1000
G1 Z0.2 F720
G1 X110.0 E8.0 F900
G1 X40.0 E10.0 F700
G92 E0.0

M221 S95 ; set flow
G21 ; set units to millimeters
G90 ; use absolute coordinates
M83 ; use relative distances for extrusion
M900 K0.2 ; Filament gcode LA 1.5
; ; Filament gcode LA 1.0
;LAYER_CHANGE
;Z:0.2
;HEIGHT:0.2
;BEFORE_LAYER_CHANGE
G92 E0.0
;0.2


G1 Z0.200 F9000.000
;AFTER_LAYER_CHANGE
;0.2
G1 E-3.20000 F4200.000
G1 Z0.400 F9000.000
G1 X82.439 Y78.511
G1 Z0.200
G1 E3.20000 F2400.000
M204 S800
;TYPE:Skirt
;WIDTH:0.42
G1 F1200.000
G1 X83.786 Y77.730 E0.04881
G1 X84.465 Y77.493 E0.02256
G1 X92.272 Y76.482 E0.24683
G1 X92.798 Y76.534 E0.01656
G1 X93.791 Y76.778 E0.03206
G1 X94.911 Y77.231 E0.03790
G1 X100.924 Y81.833 E0.23740
G1 X101.484 Y82.433 E0.02574
G1 X102.276 Y83.797 E0.04945
G1 X102.514 Y84.501 E0.02333
G1 X103.500 Y91.953 E0.23568
G1 X103.471 Y92.774 E0.02574
G1 X103.066 Y94.296 E0.04939
G1 X102.733 Y94.966 E0.02345
G1 X98.162 Y100.930 E0.23561
G1 X97.523 Y101.514 E0.02714
G1 X96.192 Y102.281 E0.04817
G1 X95.490 Y102.516 E0.02320
G1 X88.047 Y103.500 E0.23542
G1 X87.226 Y103.471 E0.02574
G1 X85.704 Y103.066 E0.04940
G1 X85.034 Y102.733 E0.02345
G1 X79.070 Y98.162 E0.23561
G1 X78.486 Y97.523 E0.02714
G1 X77.719 Y96.192 E0.04817
G1 X77.484 Y95.490 E0.02320
G1 X76.500 Y88.047 E0.23542
G1 X76.529 Y87.226 E0.02574
G1 X76.934 Y85.704 E0.04939
G1 X77.264 Y85.037 E0.02333
G1 X81.835 Y79.073 E0.23561
G1 X82.395 Y78.552 E0.02399
M204 S1250
G1 X82.650 Y78.826 F9000.000
M204 S800
G1 F1200.000
G1 X83.949 Y78.070 E0.04711
G1 X84.548 Y77.861 E0.01989
G1 X92.273 Y76.859 E0.24426
G1 X93.687 Y77.141 E0.04519
G1 X94.714 Y77.552 E0.03469
G1 X100.686 Y82.126 E0.23586
G1 X101.178 Y82.652 E0.02260
G1 X101.934 Y83.955 E0.04723
G1 X102.145 Y84.577 E0.02060
G1 X103.125 Y91.992 E0.23449
G1 X103.099 Y92.712 E0.02260
G1 X102.712 Y94.166 E0.04717
G1 X102.421 Y94.755 E0.02060
G1 X97.870 Y100.692 E0.23455
G1 X97.313 Y101.201 E0.02367
G1 X96.038 Y101.937 E0.04615
G1 X95.419 Y102.145 E0.02048
G1 X88.008 Y103.125 E0.23437
G1 X87.288 Y103.099 E0.02260
G1 X85.834 Y102.712 E0.04717
G1 X85.245 Y102.421 E0.02060
G1 X79.308 Y97.870 E0.23455
G1 X78.799 Y97.313 E0.02367
G1 X78.063 Y96.038 E0.04615
G1 X77.855 Y95.419 E0.02048
M73 P1 R40
G1 X76.875 Y88.008 E0.23437
G1 X76.901 Y87.288 E0.02260
G1 X77.288 Y85.834 E0.04717
G1 X77.579 Y85.245 E0.02060
G1 X82.128 Y79.311 E0.23443
G1 X82.606 Y78.867 E0.02047
M204 S1250
; printing object Gear, Axle (8, 2.2).stl id:0 copy 0
G1 E-2.24000 F4200.000
;WIPE_START
G1 F7200.000
G1 X83.949 Y78.070 E-0.86511
G1 X84.029 Y78.042 E-0.04689
;WIPE_END
G1 E-0.04800 F4200.000
G1 Z0.400 F9000.000
G1 X86.602 Y86.163
G1 Z0.200
G1 E3.20000 F2400.000
M204 S800
;TYPE:Perimeter
G1 F1200.000
G1 X93.398 Y86.163 E0.21305
G1 X93.925 Y86.741 E0.02453
G1 X94.209 Y87.117 E0.01477
G1 X94.457 Y87.518 E0.01477
G1 X94.667 Y87.939 E0.01477
G1 X94.837 Y88.379 E0.01477
G1 X94.966 Y88.832 E0.01477
G1 X95.052 Y89.295 E0.01477
G1 X95.096 Y89.764 E0.01477
G1 X95.096 Y90.236 E0.01477
G1 X95.052 Y90.705 E0.01477
G1 X94.966 Y91.168 E0.01477
G1 X94.837 Y91.621 E0.01477
G1 X94.667 Y92.061 E0.01477
G1 X94.457 Y92.482 E0.01477
G1 X94.209 Y92.883 E0.01477
G1 X93.925 Y93.259 E0.01477
G1 X93.398 Y93.837 E0.02453
G1 X86.602 Y93.837 E0.21305
G1 X86.075 Y93.259 E0.02453
G1 X85.791 Y92.883 E0.01477
G1 X85.543 Y92.482 E0.01477
G1 X85.333 Y92.061 E0.01477
G1 X85.163 Y91.621 E0.01477
G1 X85.034 Y91.168 E0.01477
G1 X84.948 Y90.705 E0.01477
G1 X84.904 Y90.236 E0.01477
G1 X84.904 Y89.764 E0.01477
G1 X84.948 Y89.295 E0.01477
G1 X85.034 Y88.832 E0.01477
G1 X85.163 Y88.379 E0.01477
G1 X85.333 Y87.939 E0.01477
G1 X85.543 Y87.518 E0.01477
G1 X85.791 Y87.117 E0.01477
G1 X86.075 Y86.741 E0.01477
G1 X86.562 Y86.207 E0.02265
M204 S1250
G1 X86.769 Y86.540 F9000.000
M204 S800
;TYPE:External perimeter
G1 F1200.000
G1 X93.231 Y86.540 E0.20261
G1 X93.634 Y86.982 E0.01876
G1 X93.897 Y87.330 E0.01368
G1 X94.127 Y87.701 E0.01368
G1 X94.321 Y88.092 E0.01368
G1 X94.479 Y88.499 E0.01368
G1 X94.598 Y88.918 E0.01368
G1 X94.678 Y89.347 E0.01368
G1 X94.719 Y89.782 E0.01368
G1 X94.719 Y90.218 E0.01368
G1 X94.678 Y90.653 E0.01368
G1 X94.598 Y91.082 E0.01368
G1 X94.479 Y91.501 E0.01368
G1 X94.321 Y91.908 E0.01368
G1 X94.127 Y92.299 E0.01368
G1 X93.897 Y92.670 E0.01368
G1 X93.634 Y93.018 E0.01368
G1 X93.231 Y93.460 E0.01876
G1 X86.769 Y93.460 E0.20261
G1 X86.366 Y93.018 E0.01876
G1 X86.103 Y92.670 E0.01368
G1 X85.873 Y92.299 E0.01368
G1 X85.679 Y91.908 E0.01368
G1 X85.521 Y91.501 E0.01368
G1 X85.402 Y91.082 E0.01368
G1 X85.322 Y90.653 E0.01368
G1 X85.281 Y90.218 E0.01368
G1 X85.281 Y89.782 E0.01368
G1 X85.322 Y89.347 E0.01368
G1 X85.402 Y88.918 E0.01368
G1 X85.521 Y88.499 E0.01368
G1 X85.679 Y88.092 E0.01368
G1 X85.873 Y87.701 E0.01368
G1 X86.103 Y87.330 E0.01368
G1 X86.366 Y86.982 E0.01368
G1 X86.729 Y86.584 E0.01688
M204 S1250
G1 X86.861 Y86.151 F9000.000
G1 E-2.24000 F4200.000
;WIPE_START
G1 F7200.000
G1 X88.374 Y86.573 E-0.91200
;WIPE_END
G1 E-0.04800 F4200.000
G1 Z0.400 F9000.000
G1 X84.932 Y87.931
G1 Z0.200
G1 E3.20000 F2400.000
M204 S800
;TYPE:Perimeter
G1 F1200.000
G1 X84.805 Y88.259 E0.01101
G1 X84.667 Y88.746 E0.01587
G1 X84.573 Y89.253 E0.01618
G1 X84.423 Y89.081 E0.00715
G1 X84.122 Y88.839 E0.01213
G1 X83.782 Y88.654 E0.01213
G1 X83.415 Y88.533 E0.01213
G1 X83.085 Y88.486 E0.01043
G1 X81.875 Y88.418 E0.03802
G1 X81.687 Y88.355 E0.00621
G1 X81.337 Y88.165 E0.01248
G1 X81.105 Y88.001 E0.00890
G1 X80.864 Y87.800 E0.00985
G1 X80.530 Y87.466 E0.01482
G1 X80.988 Y87.337 E0.01492
G1 X81.298 Y87.283 E0.00985
G1 X81.593 Y87.257 E0.00928
G1 X81.857 Y87.257 E0.00828
G1 X82.072 Y87.281 E0.00681
G1 X82.204 Y87.317 E0.00427
G1 X83.253 Y87.853 E0.03694
G1 X83.563 Y87.978 E0.01049
G1 X83.942 Y88.057 E0.01213
G1 X84.329 Y88.066 E0.01213
G1 X84.711 Y88.008 E0.01213
G1 X84.875 Y87.951 E0.00546
M204 S1250
G1 E-2.24000 F4200.000
;WIPE_START
G1 F7200.000
G1 X84.805 Y88.259 E-0.17502
G1 X84.667 Y88.746 E-0.28044
G1 X84.573 Y89.253 E-0.28592
G1 X84.423 Y89.081 E-0.12638
G1 X84.361 Y89.031 E-0.04424
;WIPE_END
G1 E-0.04800 F4200.000
G1 Z0.400 F9000.000
G1 X84.953 Y92.122
G1 Z0.200
G1 E3.20000 F2400.000
M204 S800
G1 F1200.000
G1 X85.214 Y92.666 E0.01890
G1 X85.480 Y93.096 E0.01587
G1 X85.641 Y93.310 E0.00839
G1 X85.407 Y93.293 E0.00737
G1 X85.022 Y93.335 E0.01213
G1 X84.651 Y93.445 E0.01213
G1 X84.306 Y93.619 E0.01213
G1 X84.040 Y93.819 E0.01043
G1 X83.136 Y94.627 E0.03802
M73 P1 R39
G1 X82.959 Y94.715 E0.00621
G1 X82.577 Y94.828 E0.01248
G1 X82.297 Y94.876 E0.00890
G1 X81.984 Y94.905 E0.00985
G1 X81.512 Y94.904 E0.01482
G1 X81.744 Y94.489 E0.01492
G1 X81.926 Y94.233 E0.00985
G1 X82.115 Y94.005 E0.00928
G1 X82.302 Y93.819 E0.00828
G1 X82.472 Y93.683 E0.00681
G1 X82.590 Y93.616 E0.00427
G1 X83.711 Y93.253 E0.03694
G1 X84.019 Y93.122 E0.01049
G1 X84.342 Y92.909 E0.01213
G1 X84.622 Y92.643 E0.01213
G1 X84.851 Y92.331 E0.01213
G1 X84.927 Y92.176 E0.00540
M204 S1250
G1 E-2.24000 F4200.000
;WIPE_START
G1 F7200.000
G1 X85.214 Y92.666 E-0.31450
G1 X85.480 Y93.096 E-0.28045
G1 X85.641 Y93.310 E-0.14831
G1 X85.407 Y93.293 E-0.13033
G1 X85.338 Y93.301 E-0.03842
;WIPE_END
G1 E-0.04800 F4200.000
G1 Z0.400 F9000.000
G1 X87.360 Y94.214
G1 Z0.200
G1 E3.20000 F2400.000
M204 S800
G1 F1200.000
G1 X93.320 Y94.214 E0.18686
G1 X93.293 Y94.593 E0.01192
G1 X93.335 Y94.978 E0.01213
G1 X93.445 Y95.349 E0.01213
G1 X93.619 Y95.694 E0.01213
G1 X93.819 Y95.960 E0.01043
G1 X94.627 Y96.864 E0.03802
G1 X94.715 Y97.041 E0.00621
G1 X94.828 Y97.423 E0.01248
G1 X94.876 Y97.703 E0.00890
G1 X94.905 Y98.016 E0.00985
G1 X94.904 Y98.488 E0.01482
G1 X94.489 Y98.256 E0.01492
G1 X94.233 Y98.074 E0.00985
G1 X94.005 Y97.885 E0.00928
G1 X93.819 Y97.698 E0.00828
G1 X93.683 Y97.528 E0.00681
G1 X93.616 Y97.410 E0.00427
G1 X93.253 Y96.289 E0.03694
G1 X93.122 Y95.981 E0.01049
G1 X92.909 Y95.658 E0.01213
G1 X92.643 Y95.378 E0.01213
G1 X92.331 Y95.149 E0.01213
G1 X91.984 Y94.979 E0.01213
G1 X91.611 Y94.874 E0.01213
G1 X91.210 Y94.835 E0.01266
G1 X90.383 Y94.932 E0.02610
G1 X90.067 Y94.989 E0.01006
G1 X89.705 Y95.125 E0.01213
G1 X89.373 Y95.323 E0.01213
G1 X89.081 Y95.577 E0.01213
G1 X88.839 Y95.878 E0.01213
G1 X88.654 Y96.218 E0.01213
G1 X88.533 Y96.585 E0.01213
G1 X88.486 Y96.915 E0.01043
G1 X88.418 Y98.125 E0.03802
G1 X88.355 Y98.313 E0.00621
G1 X88.165 Y98.663 E0.01248
G1 X88.001 Y98.895 E0.00890
G1 X87.800 Y99.136 E0.00985
G1 X87.466 Y99.470 E0.01482
G1 X87.337 Y99.012 E0.01492
G1 X87.283 Y98.702 E0.00985
G1 X87.257 Y98.407 E0.00929
G1 X87.257 Y98.143 E0.00828
G1 X87.281 Y97.928 E0.00681
G1 X87.317 Y97.796 E0.00427
G1 X87.853 Y96.747 E0.03694
G1 X87.978 Y96.437 E0.01049
G1 X88.057 Y96.058 E0.01213
G1 X88.066 Y95.671 E0.01213
G1 X88.008 Y95.289 E0.01213
G1 X87.882 Y94.923 E0.01213
G1 X87.693 Y94.586 E0.01213
G1 X87.407 Y94.251 E0.01379
M204 S1250
G1 E-2.24000 F4200.000
;WIPE_START
G1 F7200.000
G1 X89.053 Y94.241 E-0.91200
;WIPE_END
G1 E-0.04800 F4200.000
G1 Z0.400 F9000.000
G1 X95.068 Y92.069
G1 Z0.200
G1 E3.20000 F2400.000
M204 S800
G1 F1200.000
G1 X95.195 Y91.741 E0.01101
G1 X95.333 Y91.254 E0.01587
G1 X95.427 Y90.747 E0.01618
G1 X95.577 Y90.919 E0.00715
G1 X95.878 Y91.161 E0.01213
G1 X96.218 Y91.346 E0.01213
G1 X96.585 Y91.467 E0.01213
G1 X96.915 Y91.514 E0.01043
G1 X98.125 Y91.582 E0.03802
G1 X98.313 Y91.645 E0.00621
G1 X98.663 Y91.835 E0.01248
G1 X98.895 Y91.999 E0.00890
G1 X99.136 Y92.200 E0.00985
G1 X99.470 Y92.534 E0.01482
G1 X99.012 Y92.663 E0.01492
G1 X98.702 Y92.717 E0.00985
G1 X98.407 Y92.743 E0.00928
G1 X98.143 Y92.743 E0.00828
G1 X97.928 Y92.719 E0.00681
G1 X97.796 Y92.683 E0.00427
G1 X96.747 Y92.147 E0.03694
G1 X96.437 Y92.022 E0.01049
G1 X96.058 Y91.943 E0.01213
G1 X95.671 Y91.934 E0.01213
G1 X95.289 Y91.992 E0.01213
G1 X95.125 Y92.049 E0.00546
M204 S1250
G1 E-2.24000 F4200.000
;WIPE_START
G1 F7200.000
G1 X95.195 Y91.741 E-0.17502
G1 X95.333 Y91.254 E-0.28044
G1 X95.427 Y90.747 E-0.28592
G1 X95.577 Y90.919 E-0.12638
G1 X95.639 Y90.969 E-0.04424
;WIPE_END
G1 E-0.04800 F4200.000
G1 Z0.400 F9000.000
G1 X95.047 Y87.878
G1 Z0.200
G1 E3.20000 F2400.000
M204 S800
G1 F1200.000
G1 X94.786 Y87.334 E0.01890
G1 X94.520 Y86.904 E0.01587
G1 X94.359 Y86.690 E0.00839
G1 X94.593 Y86.707 E0.00737
G1 X94.978 Y86.665 E0.01213
G1 X95.349 Y86.555 E0.01213
G1 X95.694 Y86.381 E0.01213
G1 X95.960 Y86.181 E0.01043
G1 X96.864 Y85.373 E0.03802
G1 X97.041 Y85.285 E0.00621
G1 X97.423 Y85.172 E0.01248
G1 X97.703 Y85.124 E0.00890
G1 X98.016 Y85.095 E0.00985
G1 X98.488 Y85.096 E0.01482
G1 X98.256 Y85.511 E0.01492
G1 X98.074 Y85.767 E0.00985
G1 X97.885 Y85.995 E0.00928
G1 X97.698 Y86.181 E0.00828
G1 X97.528 Y86.317 E0.00681
G1 X97.410 Y86.384 E0.00427
G1 X96.289 Y86.747 E0.03694
G1 X95.981 Y86.878 E0.01049
G1 X95.658 Y87.091 E0.01213
G1 X95.377 Y87.357 E0.01213
G1 X95.149 Y87.669 E0.01213
G1 X95.073 Y87.824 E0.00540
M204 S1250
G1 E-2.24000 F4200.000
;WIPE_START
G1 F7200.000
G1 X94.786 Y87.334 E-0.31451
G1 X94.520 Y86.904 E-0.28044
G1 X94.359 Y86.690 E-0.14831
G1 X94.593 Y86.707 E-0.13033
G1 X94.662 Y86.699 E-0.03841
;WIPE_END
G1 E-0.04800 F4200.000
G1 Z0.400 F9000.000
G1 X92.640 Y85.786
G1 Z0.200
G1 E3.20000 F2400.000
M204 S800
G1 F1200.000
G1 X86.680 Y85.786 E0.18686
G1 X86.707 Y85.407 E0.01192
G1 X86.664 Y85.022 E0.01213
G1 X86.555 Y84.651 E0.01213
G1 X86.381 Y84.306 E0.01213
G1 X86.181 Y84.040 E0.01043
G1 X85.373 Y83.136 E0.03802
G1 X85.285 Y82.959 E0.00621
G1 X85.172 Y82.577 E0.01248
G1 X85.124 Y82.297 E0.00890
G1 X85.095 Y81.984 E0.00985
G1 X85.096 Y81.512 E0.01482
G1 X85.511 Y81.744 E0.01492
G1 X85.767 Y81.926 E0.00985
G1 X85.995 Y82.115 E0.00928
G1 X86.181 Y82.302 E0.00828
G1 X86.317 Y82.472 E0.00681
G1 X86.384 Y82.590 E0.00427
G1 X86.747 Y83.711 E0.03694
G1 X86.878 Y84.019 E0.01049
G1 X87.091 Y84.342 E0.01213
G1 X87.357 Y84.623 E0.01213
G1 X87.669 Y84.851 E0.01213
G1 X88.016 Y85.021 E0.01213
G1 X88.389 Y85.126 E0.01213
G1 X88.790 Y85.165 E0.01266
G1 X89.617 Y85.068 E0.02610
G1 X89.933 Y85.011 E0.01006
G1 X90.295 Y84.875 E0.01213
G1 X90.627 Y84.677 E0.01213
G1 X90.919 Y84.423 E0.01213
G1 X91.161 Y84.122 E0.01213
G1 X91.346 Y83.782 E0.01213
G1 X91.467 Y83.415 E0.01213
G1 X91.514 Y83.085 E0.01043
G1 X91.582 Y81.875 E0.03802
G1 X91.645 Y81.687 E0.00621
G1 X91.835 Y81.337 E0.01248
G1 X91.999 Y81.105 E0.00890
G1 X92.200 Y80.864 E0.00985
G1 X92.534 Y80.530 E0.01482
G1 X92.663 Y80.988 E0.01492
G1 X92.717 Y81.298 E0.00985
G1 X92.743 Y81.593 E0.00928
G1 X92.743 Y81.857 E0.00828
G1 X92.719 Y82.072 E0.00681
G1 X92.683 Y82.204 E0.00427
G1 X92.147 Y83.253 E0.03694
G1 X92.022 Y83.563 E0.01049
G1 X91.943 Y83.942 E0.01213
G1 X91.934 Y84.329 E0.01213
G1 X91.992 Y84.711 E0.01213
G1 X92.118 Y85.077 E0.01213
G1 X92.307 Y85.414 E0.01213
G1 X92.593 Y85.749 E0.01379
M204 S1250
G1 E-2.24000 F4200.000
;WIPE_START
G1 F7200.000
G1 X90.947 Y85.759 E-0.91200
;WIPE_END
G1 E-0.04800 F4200.000
G1 Z0.400 F9000.000
G1 X92.814 Y80.189
G1 Z0.200
G1 E3.20000 F2400.000
M204 S800
G1 F1200.000
G1 X92.949 Y80.571 E0.01272
G1 X93.033 Y80.910 E0.01096
G1 X93.091 Y81.249 E0.01076
G1 X93.120 Y81.576 E0.01030
G1 X93.120 Y81.878 E0.00947
G1 X93.090 Y82.144 E0.00840
G1 X93.036 Y82.341 E0.00641
G1 X92.490 Y83.409 E0.03762
G1 X92.384 Y83.673 E0.00890
G1 X92.320 Y83.985 E0.01001
G1 X92.311 Y84.305 E0.01001
G1 X92.360 Y84.620 E0.01001
G1 X92.464 Y84.922 E0.01001
G1 X92.620 Y85.201 E0.01001
G1 X92.829 Y85.455 E0.01033
G1 X93.441 Y85.939 E0.02446
G1 X93.667 Y86.095 E0.00862
G1 X93.958 Y86.227 E0.01001
G1 X94.267 Y86.306 E0.01001
G1 X94.586 Y86.328 E0.01001
G1 X94.903 Y86.293 E0.01001
G1 X95.209 Y86.203 E0.01001
G1 X95.495 Y86.059 E0.01001
G1 X95.721 Y85.889 E0.00886
G1 X96.651 Y85.058 E0.03913
G1 X96.903 Y84.933 E0.00883
G1 X97.337 Y84.804 E0.01418
G1 X97.653 Y84.750 E0.01006
G1 X97.995 Y84.718 E0.01076
G1 X98.353 Y84.711 E0.01122
G1 X98.749 Y84.732 E0.01246
G1 X98.927 Y85.052 E0.01147
G1 X98.752 Y85.418 E0.01272
G1 X98.572 Y85.717 E0.01096
G1 X98.374 Y85.997 E0.01076
G1 X98.163 Y86.249 E0.01030
G1 X97.950 Y86.463 E0.00947
G1 X97.740 Y86.630 E0.00840
G1 X97.563 Y86.731 E0.00641
G1 X96.421 Y87.101 E0.03762
G1 X96.160 Y87.212 E0.00890
G1 X95.893 Y87.387 E0.01001
G1 X95.662 Y87.607 E0.01001
G1 X95.473 Y87.865 E0.01001
G1 X95.333 Y88.151 E0.01001
G1 X95.246 Y88.459 E0.01001
G1 X95.214 Y88.787 E0.01033
G1 X95.305 Y89.561 E0.02446
G1 X95.354 Y89.832 E0.00862
G1 X95.466 Y90.131 E0.01001
G1 X95.630 Y90.405 E0.01001
G1 X95.839 Y90.646 E0.01001
G1 X96.088 Y90.846 E0.01001
G1 X96.369 Y90.999 E0.01001
G1 X96.672 Y91.099 E0.01001
G1 X96.952 Y91.138 E0.00886
G1 X98.198 Y91.208 E0.03913
G1 X98.464 Y91.298 E0.00883
G1 X98.862 Y91.514 E0.01418
G1 X99.124 Y91.699 E0.01006
G1 X99.388 Y91.919 E0.01076
G1 X99.646 Y92.167 E0.01122
G1 X99.911 Y92.462 E0.01246
G1 X99.811 Y92.814 E0.01147
G1 X99.429 Y92.949 E0.01272
G1 X99.090 Y93.033 E0.01096
G1 X98.751 Y93.091 E0.01076
G1 X98.424 Y93.120 E0.01030
G1 X98.122 Y93.120 E0.00947
G1 X97.856 Y93.090 E0.00840
G1 X97.659 Y93.036 E0.00641
G1 X96.591 Y92.490 E0.03762
G1 X96.327 Y92.384 E0.00890
G1 X96.015 Y92.320 E0.01001
G1 X95.695 Y92.311 E0.01001
