; generated by PrusaSlicer 2.3.0+win64 on 2021-05-23 at 12:35:19 UTC


;
;

;
;
; 

; external perimeters extrusion width = 0.40mm
; perimeters extrusion width = 0.40mm
; infill extrusion width = 0.45mm
; solid infill extrusion width = 0.45mm
; top infill extrusion width = 0.40mm
; first layer extrusion width = 0.42mm

M73 P0 R32
M201 X1250 Y1250 Z400 E5000 ; sets maximum accelerations, mm/sec^2
M203 X180 Y180 Z12 E80 ; sets maximum feedrates, mm/sec
M204 P1250 R1250 T1250 ; sets acceleration (P, T) and retract acceleration (R), mm/sec^2
M205 X8.00 Y8.00 Z2.00 E10.00 ; sets the jerk limits, mm/sec
M205 S0 T0 ; sets the minimum extruding and travel feed rate, mm/sec
M107
;TYPE:Custom
G90 ; use absolute coordinates
M83 ; extruder relative mode
M104 S170 ; set extruder temp for bed leveling
M140 S60 ; set bed temp
M109 R170 ; wait for bed leveling temp
M190 S60 ; wait for bed temp
G28 ; home all without mesh bed level
G29 ; mesh bed leveling 
M104 S215 ; set extruder temp
G92 E0.0
G1 Y-2.0 X179 F2400
G1 Z3 F720
M109 S215 ; wait for extruder temp

; intro line
G1 X170 F1000
G1 Z0.2 F720
G1 X110.0 E8.0 F900
G1 X40.0 E10.0 F700
G92 E0.0

M221 S95 ; set flow
G21 ; set units to millimeters
G90 ; use absolute coordinates
M83 ; use relative distances for extrusion
M900 K0.2 ; Filament gcode LA 1.5
; ; Filament gcode LA 1.0
;LAYER_CHANGE
;Z:0.2
;HEIGHT:0.2
;BEFORE_LAYER_CHANGE
G92 E0.0
;0.2


G1 Z0.200 F9000.000
;AFTER_LAYER_CHANGE
;0.2
G1 E-3.20000 F4200.000
G1 Z0.400 F9000.000
G1 X81.032 Y79.572
G1 Z0.200
G1 E3.20000 F2400.000
M204 S800
;TYPE:Skirt
;WIDTH:0.42
G1 F1200.000
G1 X82.253 Y78.635 E0.04824
G1 X82.910 Y78.312 E0.02294
G1 X90.159 Y76.365 E0.23535
G1 X90.848 Y76.278 E0.02180
G1 X92.522 Y76.479 E0.05285
G1 X93.247 Y76.720 E0.02396
G1 X99.768 Y80.479 E0.23599
G1 X100.428 Y81.032 E0.02701
G1 X101.367 Y82.256 E0.04837
G1 X101.693 Y82.925 E0.02333
G1 X103.640 Y90.178 E0.23548
G1 X103.715 Y91.033 E0.02689
G1 X103.513 Y92.562 E0.04837
G1 X103.271 Y93.265 E0.02333
G1 X99.519 Y99.771 E0.23548
G1 X98.956 Y100.439 E0.02739
G1 X97.740 Y101.369 E0.04798
G1 X97.071 Y101.694 E0.02333
G1 X89.822 Y103.640 E0.23535
M73 P1 R32
G1 X88.967 Y103.715 E0.02689
G1 X87.438 Y103.513 E0.04837
G1 X86.731 Y103.269 E0.02345
G1 X80.229 Y99.519 E0.23535
G1 X79.561 Y98.956 E0.02739
G1 X78.632 Y97.742 E0.04791
G1 X78.307 Y97.073 E0.02333
G1 X76.360 Y89.822 E0.23542
G1 X76.285 Y88.967 E0.02689
G1 X76.487 Y87.438 E0.04837
G1 X76.729 Y86.735 E0.02333
G1 X80.481 Y80.229 E0.23548
G1 X80.994 Y79.618 E0.02501
M204 S1250
G1 X81.280 Y79.857 F9000.000
M204 S800
G1 F1200.000
G1 X82.451 Y78.956 E0.04633
G1 X83.030 Y78.670 E0.02024
G1 X90.251 Y76.731 E0.23443
G1 X90.846 Y76.655 E0.01882
G1 X92.445 Y76.848 E0.05050
G1 X93.083 Y77.060 E0.02107
G1 X99.573 Y80.802 E0.23490
G1 X100.146 Y81.282 E0.02343
G1 X101.046 Y82.454 E0.04634
G1 X101.335 Y83.044 E0.02060
G1 X103.273 Y90.265 E0.23443
M73 P1 R31
G1 X103.339 Y91.010 E0.02343
G1 X103.145 Y92.479 E0.04646
G1 X102.933 Y93.097 E0.02048
G1 X99.198 Y99.573 E0.23443
G1 X98.707 Y100.156 E0.02390
G1 X97.542 Y101.048 E0.04598
G1 X96.956 Y101.335 E0.02048
G1 X89.738 Y103.272 E0.23431
G1 X88.990 Y103.339 E0.02355
G1 X87.521 Y103.145 E0.04646
G1 X86.900 Y102.932 E0.02060
G1 X80.427 Y99.198 E0.23431
G1 X79.844 Y98.707 E0.02390
G1 X78.951 Y97.541 E0.04604
G1 X78.665 Y96.954 E0.02048
G1 X76.728 Y89.738 E0.23425
G1 X76.661 Y88.990 E0.02355
G1 X76.855 Y87.521 E0.04646
G1 X77.067 Y86.904 E0.02048
G1 X80.800 Y80.430 E0.23431
G1 X81.241 Y79.903 E0.02155
M204 S1250
; printing object Gear, Floating Pinion (8, 2.2).stl id:0 copy 0
G1 E-2.24000 F4200.000
;WIPE_START
G1 F7200.000
G1 X82.451 Y78.956 E-0.85142
G1 X82.549 Y78.908 E-0.06058
;WIPE_END
G1 E-0.04800 F4200.000
G1 Z0.400 F9000.000
G1 X87.302 Y86.826
G1 Z0.200
G1 E3.20000 F2400.000
M204 S800
;TYPE:Perimeter
G1 F1200.000
G1 X87.681 Y86.539 E0.01491
G1 X88.091 Y86.297 E0.01491
G1 X88.526 Y86.104 E0.01491
G1 X88.979 Y85.961 E0.01491
G1 X89.446 Y85.871 E0.01491
G1 X89.898 Y85.836 E0.01420
G1 X90.393 Y85.852 E0.01554
G1 X90.866 Y85.925 E0.01500
G1 X91.325 Y86.050 E0.01491
G1 X91.767 Y86.227 E0.01491
G1 X92.185 Y86.453 E0.01491
G1 X92.575 Y86.725 E0.01491
G1 X92.932 Y87.040 E0.01491
G1 X93.250 Y87.394 E0.01491
G1 X93.526 Y87.781 E0.01491
G1 X93.756 Y88.198 E0.01491
G1 X93.937 Y88.637 E0.01491
G1 X94.067 Y89.095 E0.01491
G1 X94.143 Y89.565 E0.01491
G1 X94.166 Y90.040 E0.01491
G1 X94.134 Y90.514 E0.01491
G1 X94.049 Y90.982 E0.01491
G1 X93.917 Y91.415 E0.01420
G1 X93.722 Y91.871 E0.01554
G1 X93.483 Y92.286 E0.01500
G1 X93.200 Y92.668 E0.01491
G1 X92.875 Y93.015 E0.01491
G1 X92.512 Y93.323 E0.01491
G1 X92.117 Y93.588 E0.01491
G1 X91.694 Y93.806 E0.01491
G1 X91.250 Y93.974 E0.01491
G1 X90.788 Y94.091 E0.01491
G1 X90.317 Y94.154 E0.01491
G1 X89.841 Y94.163 E0.01491
G1 X89.368 Y94.118 E0.01491
G1 X88.903 Y94.019 E0.01491
G1 X88.473 Y93.875 E0.01420
G1 X88.023 Y93.667 E0.01554
G1 X87.616 Y93.416 E0.01500
G1 X87.242 Y93.122 E0.01491
G1 X86.904 Y92.788 E0.01491
G1 X86.606 Y92.417 E0.01491
G1 X86.353 Y92.014 E0.01491
G1 X86.157 Y91.606 E0.01420
G1 X85.992 Y91.138 E0.01554
G1 X85.888 Y90.671 E0.01500
G1 X85.839 Y90.198 E0.01491
G1 X85.843 Y89.723 E0.01491
G1 X85.902 Y89.251 E0.01491
G1 X86.014 Y88.788 E0.01491
G1 X86.170 Y88.363 E0.01420
G1 X86.391 Y87.919 E0.01554
G1 X86.653 Y87.519 E0.01500
G1 X86.958 Y87.154 E0.01491
G1 X87.258 Y86.867 E0.01303
M204 S1250
G1 X87.519 Y87.140 F9000.000
M204 S800
G1 F1200.000
G1 X87.892 Y86.853 E0.01476
G1 X88.264 Y86.633 E0.01356
G1 X88.659 Y86.457 E0.01356
G1 X89.072 Y86.327 E0.01356
G1 X89.497 Y86.245 E0.01356
G1 X89.906 Y86.214 E0.01288
G1 X90.358 Y86.229 E0.01419
G1 X90.788 Y86.294 E0.01362
G1 X91.205 Y86.408 E0.01356
G1 X91.606 Y86.569 E0.01356
G1 X91.987 Y86.775 E0.01356
G1 X92.342 Y87.022 E0.01356
G1 X92.666 Y87.308 E0.01356
G1 X92.955 Y87.630 E0.01356
G1 X93.206 Y87.982 E0.01356
G1 X93.415 Y88.361 E0.01356
G1 X93.580 Y88.761 E0.01356
G1 X93.698 Y89.177 E0.01356
G1 X93.768 Y89.604 E0.01356
G1 X93.788 Y90.036 E0.01356
G1 X93.759 Y90.468 E0.01356
G1 X93.682 Y90.893 E0.01356
G1 X93.562 Y91.286 E0.01288
G1 X93.384 Y91.702 E0.01419
G1 X93.167 Y92.078 E0.01362
G1 X92.910 Y92.426 E0.01356
G1 X92.614 Y92.742 E0.01356
G1 X92.285 Y93.022 E0.01356
G1 X91.925 Y93.263 E0.01356
G1 X91.541 Y93.461 E0.01356
G1 X91.136 Y93.614 E0.01356
G1 X90.717 Y93.720 E0.01356
G1 X90.288 Y93.777 E0.01356
G1 X89.856 Y93.786 E0.01356
G1 X89.425 Y93.745 E0.01356
G1 X89.002 Y93.655 E0.01356
G1 X88.613 Y93.524 E0.01288
G1 X88.202 Y93.334 E0.01419
G1 X87.832 Y93.107 E0.01362
G1 X87.492 Y92.839 E0.01356
G1 X87.185 Y92.535 E0.01356
G1 X86.914 Y92.197 E0.01356
G1 X86.684 Y91.831 E0.01356
G1 X86.506 Y91.461 E0.01288
G1 X86.355 Y91.034 E0.01419
G1 X86.261 Y90.610 E0.01362
G1 X86.216 Y90.180 E0.01356
G1 X86.220 Y89.748 E0.01356
G1 X86.273 Y89.318 E0.01356
G1 X86.375 Y88.898 E0.01356
G1 X86.517 Y88.513 E0.01288
G1 X86.718 Y88.107 E0.01419
G1 X86.956 Y87.744 E0.01362
G1 X87.233 Y87.412 E0.01356
G1 X87.475 Y87.181 E0.01048
M204 S1250
G1 X87.735 Y87.454 F9000.000
M204 S800
;TYPE:External perimeter
G1 F1200.000
G1 X88.102 Y87.166 E0.01461
G1 X88.437 Y86.968 E0.01221
G1 X88.793 Y86.810 E0.01221
G1 X89.164 Y86.693 E0.01221
G1 X89.547 Y86.620 E0.01221
G1 X89.914 Y86.592 E0.01156
G1 X90.324 Y86.605 E0.01283
G1 X90.709 Y86.664 E0.01223
G1 X91.085 Y86.766 E0.01221
G1 X91.446 Y86.911 E0.01221
G1 X91.789 Y87.096 E0.01221
G1 X92.108 Y87.319 E0.01221
G1 X92.400 Y87.577 E0.01221
G1 X92.661 Y87.866 E0.01221
G1 X92.887 Y88.183 E0.01221
G1 X93.075 Y88.524 E0.01221
G1 X93.223 Y88.884 E0.01221
G1 X93.329 Y89.259 E0.01221
G1 X93.392 Y89.643 E0.01221
G1 X93.411 Y90.032 E0.01221
G1 X93.385 Y90.421 E0.01221
G1 X93.315 Y90.804 E0.01221
G1 X93.207 Y91.157 E0.01156
G1 X93.047 Y91.533 E0.01283
G1 X92.852 Y91.871 E0.01223
G1 X92.620 Y92.184 E0.01221
G1 X92.354 Y92.468 E0.01221
G1 X92.057 Y92.721 E0.01221
G1 X91.733 Y92.937 E0.01221
G1 X91.387 Y93.116 E0.01221
G1 X91.023 Y93.254 E0.01221
G1 X90.645 Y93.349 E0.01221
G1 X90.260 Y93.401 E0.01221
G1 X89.870 Y93.408 E0.01221
G1 X89.482 Y93.371 E0.01221
G1 X89.102 Y93.290 E0.01221
G1 X88.752 Y93.173 E0.01156
G1 X88.380 Y93.002 E0.01283
G1 X88.048 Y92.797 E0.01223
G1 X87.742 Y92.556 E0.01221
G1 X87.465 Y92.282 E0.01221
G1 X87.222 Y91.978 E0.01221
G1 X87.014 Y91.649 E0.01221
G1 X86.855 Y91.316 E0.01156
G1 X86.719 Y90.930 E0.01283
G1 X86.634 Y90.550 E0.01223
G1 X86.593 Y90.162 E0.01221
G1 X86.597 Y89.773 E0.01221
G1 X86.645 Y89.386 E0.01221
G1 X86.737 Y89.008 E0.01221
G1 X86.864 Y88.662 E0.01156
G1 X87.046 Y88.295 E0.01283
G1 X87.260 Y87.969 E0.01223
G1 X87.509 Y87.670 E0.01221
G1 X87.692 Y87.496 E0.00792
M204 S1250
G1 X87.658 Y87.062 F9000.000
G1 E-2.24000 F4200.000
;WIPE_START
G1 F7200.000
G1 X88.102 Y87.166 E-0.29129
G1 X88.437 Y86.968 E-0.21580
G1 X88.793 Y86.810 E-0.21581
G1 X89.118 Y86.708 E-0.18910
;WIPE_END
G1 E-0.04800 F4200.000
G1 Z0.400 F9000.000
G1 X84.041 Y82.365
G1 Z0.200
G1 E3.20000 F2400.000
M204 S800
;TYPE:Perimeter
G1 F1200.000
G1 X84.030 Y82.224 E0.00444
G1 X84.471 Y82.401 E0.01492
G1 X85.000 Y82.706 E0.01912
G1 X85.209 Y82.866 E0.00828
G1 X85.366 Y83.017 E0.00681
G1 X85.448 Y83.125 E0.00427
G1 X85.954 Y84.189 E0.03694
G1 X86.124 Y84.477 E0.01049
G1 X86.377 Y84.770 E0.01213
G1 X86.678 Y85.013 E0.01213
G1 X87.017 Y85.199 E0.01213
G1 X87.383 Y85.322 E0.01213
G1 X87.766 Y85.378 E0.01213
G1 X88.170 Y85.364 E0.01266
G1 X88.977 Y85.160 E0.02610
G1 X89.282 Y85.062 E0.01006
G1 X89.623 Y84.880 E0.01213
G1 X89.927 Y84.641 E0.01213
G1 X90.183 Y84.351 E0.01213
G1 X90.384 Y84.020 E0.01213
G1 X90.523 Y83.659 E0.01213
G1 X90.595 Y83.279 E0.01213
G1 X90.599 Y82.947 E0.01043
G1 X90.507 Y81.738 E0.03802
G1 X90.546 Y81.544 E0.00621
G1 X90.689 Y81.172 E0.01248
G1 X90.821 Y80.920 E0.00890
G1 X90.988 Y80.655 E0.00985
G1 X91.276 Y80.280 E0.01482
G1 X91.464 Y80.717 E0.01492
G1 X91.557 Y81.017 E0.00985
G1 X91.622 Y81.306 E0.00928
G1 X91.657 Y81.568 E0.00828
G1 X91.661 Y81.785 E0.00681
G1 X91.642 Y81.920 E0.00427
G1 X91.248 Y83.030 E0.03694
G1 X91.164 Y83.354 E0.01049
G1 X91.136 Y83.740 E0.01213
G1 X91.177 Y84.125 E0.01213
G1 X91.285 Y84.496 E0.01213
G1 X91.458 Y84.842 E0.01213
G1 X91.689 Y85.152 E0.01213
G1 X91.984 Y85.428 E0.01266
G1 X92.699 Y85.854 E0.02610
G1 X92.984 Y86.001 E0.01006
G1 X93.354 Y86.114 E0.01213
G1 X93.738 Y86.159 E0.01213
G1 X94.124 Y86.135 E0.01213
G1 X94.500 Y86.043 E0.01213
G1 X94.853 Y85.886 E0.01213
G1 X95.173 Y85.669 E0.01213
G1 X95.411 Y85.436 E0.01043
G1 X96.201 Y84.517 E0.03802
G1 X96.366 Y84.406 E0.00621
G1 X96.729 Y84.245 E0.01248
G1 X97.000 Y84.160 E0.00890
G1 X97.307 Y84.091 E0.00985
G1 X97.776 Y84.030 E0.01482
G1 X97.599 Y84.471 E0.01492
G1 X97.453 Y84.750 E0.00985
G1 X97.294 Y85.000 E0.00928
G1 X97.134 Y85.209 E0.00828
G1 X96.983 Y85.366 E0.00681
G1 X96.875 Y85.448 E0.00427
G1 X95.811 Y85.954 E0.03694
G1 X95.523 Y86.124 E0.01049
G1 X95.230 Y86.377 E0.01213
G1 X94.986 Y86.678 E0.01213
G1 X94.801 Y87.017 E0.01213
G1 X94.678 Y87.383 E0.01213
G1 X94.622 Y87.766 E0.01213
G1 X94.636 Y88.170 E0.01266
G1 X94.840 Y88.977 E0.02610
G1 X94.938 Y89.282 E0.01006
G1 X95.120 Y89.623 E0.01213
G1 X95.359 Y89.927 E0.01213
G1 X95.649 Y90.183 E0.01213
G1 X95.980 Y90.384 E0.01213
G1 X96.341 Y90.523 E0.01213
G1 X96.721 Y90.595 E0.01213
G1 X97.053 Y90.599 E0.01043
G1 X98.262 Y90.507 E0.03802
G1 X98.456 Y90.546 E0.00621
G1 X98.828 Y90.689 E0.01248
G1 X99.080 Y90.821 E0.00890
G1 X99.345 Y90.988 E0.00985
G1 X99.720 Y91.276 E0.01482
G1 X99.283 Y91.464 E0.01492
G1 X98.983 Y91.557 E0.00985
G1 X98.694 Y91.622 E0.00928
G1 X98.432 Y91.657 E0.00828
G1 X98.215 Y91.661 E0.00681
G1 X98.080 Y91.642 E0.00427
G1 X96.970 Y91.248 E0.03694
G1 X96.646 Y91.164 E0.01049
G1 X96.260 Y91.136 E0.01213
G1 X95.875 Y91.177 E0.01213
G1 X95.504 Y91.285 E0.01213
G1 X95.158 Y91.458 E0.01213
G1 X94.848 Y91.689 E0.01213
G1 X94.572 Y91.984 E0.01266
G1 X94.146 Y92.699 E0.02610
G1 X93.999 Y92.984 E0.01006
G1 X93.886 Y93.354 E0.01213
G1 X93.841 Y93.738 E0.01213
G1 X93.865 Y94.124 E0.01213
G1 X93.957 Y94.500 E0.01213
G1 X94.114 Y94.853 E0.01213
G1 X94.331 Y95.173 E0.01213
G1 X94.564 Y95.411 E0.01043
G1 X95.483 Y96.201 E0.03802
G1 X95.594 Y96.366 E0.00621
G1 X95.755 Y96.729 E0.01248
G1 X95.840 Y97.000 E0.00890
G1 X95.909 Y97.307 E0.00985
G1 X95.970 Y97.776 E0.01482
G1 X95.529 Y97.599 E0.01492
G1 X95.250 Y97.453 E0.00985
G1 X95.000 Y97.294 E0.00928
G1 X94.791 Y97.134 E0.00828
G1 X94.634 Y96.983 E0.00681
G1 X94.552 Y96.875 E0.00427
G1 X94.046 Y95.811 E0.03694
G1 X93.876 Y95.523 E0.01049
G1 X93.623 Y95.230 E0.01213
G1 X93.322 Y94.987 E0.01213
G1 X92.983 Y94.801 E0.01213
G1 X92.617 Y94.678 E0.01213
G1 X92.234 Y94.622 E0.01213
G1 X91.830 Y94.636 E0.01266
G1 X91.023 Y94.840 E0.02610
G1 X90.718 Y94.938 E0.01006
G1 X90.377 Y95.120 E0.01213
G1 X90.073 Y95.359 E0.01213
G1 X89.817 Y95.649 E0.01213
G1 X89.616 Y95.980 E0.01213
G1 X89.477 Y96.341 E0.01213
G1 X89.405 Y96.721 E0.01213
G1 X89.401 Y97.053 E0.01043
G1 X89.493 Y98.262 E0.03802
G1 X89.454 Y98.456 E0.00621
G1 X89.311 Y98.828 E0.01248
G1 X89.179 Y99.080 E0.00890
G1 X89.012 Y99.345 E0.00985
G1 X88.724 Y99.720 E0.01482
G1 X88.536 Y99.283 E0.01492
G1 X88.443 Y98.983 E0.00985
G1 X88.378 Y98.694 E0.00928
G1 X88.343 Y98.432 E0.00828
G1 X88.339 Y98.215 E0.00681
G1 X88.358 Y98.080 E0.00427
G1 X88.752 Y96.970 E0.03694
G1 X88.836 Y96.646 E0.01049
G1 X88.864 Y96.260 E0.01213
G1 X88.823 Y95.875 E0.01213
G1 X88.715 Y95.504 E0.01213
G1 X88.542 Y95.158 E0.01213
G1 X88.311 Y94.848 E0.01213
G1 X88.016 Y94.572 E0.01266
G1 X87.301 Y94.146 E0.02610
G1 X87.016 Y93.999 E0.01006
G1 X86.646 Y93.886 E0.01213
G1 X86.262 Y93.841 E0.01213
G1 X85.876 Y93.865 E0.01213
G1 X85.500 Y93.957 E0.01213
G1 X85.147 Y94.114 E0.01213
G1 X84.827 Y94.331 E0.01213
G1 X84.589 Y94.564 E0.01043
G1 X83.799 Y95.483 E0.03802
G1 X83.634 Y95.594 E0.00621
G1 X83.271 Y95.755 E0.01248
G1 X83.000 Y95.840 E0.00890
G1 X82.693 Y95.909 E0.00985
G1 X82.224 Y95.970 E0.01482
G1 X82.401 Y95.529 E0.01492
G1 X82.547 Y95.250 E0.00985
G1 X82.706 Y95.000 E0.00928
G1 X82.866 Y94.791 E0.00828
G1 X83.017 Y94.634 E0.00681
G1 X83.125 Y94.552 E0.00427
G1 X84.189 Y94.046 E0.03694
G1 X84.477 Y93.876 E0.01049
G1 X84.770 Y93.623 E0.01213
G1 X85.013 Y93.322 E0.01213
G1 X85.199 Y92.983 E0.01213
G1 X85.322 Y92.617 E0.01213
G1 X85.378 Y92.234 E0.01213
G1 X85.364 Y91.830 E0.01266
G1 X85.160 Y91.023 E0.02610
G1 X85.062 Y90.718 E0.01006
G1 X84.880 Y90.377 E0.01213
G1 X84.641 Y90.073 E0.01213
G1 X84.351 Y89.817 E0.01213
G1 X84.020 Y89.616 E0.01213
G1 X83.659 Y89.477 E0.01213
G1 X83.279 Y89.405 E0.01213
G1 X82.947 Y89.401 E0.01043
G1 X81.738 Y89.493 E0.03802
G1 X81.544 Y89.454 E0.00621
G1 X81.172 Y89.311 E0.01248
G1 X80.920 Y89.179 E0.00890
G1 X80.655 Y89.012 E0.00985
G1 X80.280 Y88.724 E0.01482
G1 X80.717 Y88.536 E0.01492
G1 X81.017 Y88.443 E0.00985
G1 X81.306 Y88.378 E0.00928
G1 X81.568 Y88.343 E0.00828
G1 X81.785 Y88.339 E0.00681
G1 X81.920 Y88.358 E0.00427
G1 X83.030 Y88.752 E0.03694
G1 X83.354 Y88.836 E0.01049
G1 X83.740 Y88.864 E0.01213
G1 X84.125 Y88.823 E0.01213
G1 X84.496 Y88.715 E0.01213
G1 X84.842 Y88.542 E0.01213
G1 X85.152 Y88.311 E0.01213
G1 X85.428 Y88.016 E0.01266
G1 X85.854 Y87.301 E0.02610
G1 X86.001 Y87.016 E0.01006
G1 X86.114 Y86.646 E0.01213
G1 X86.159 Y86.262 E0.01213
G1 X86.135 Y85.876 E0.01213
G1 X86.043 Y85.500 E0.01213
G1 X85.886 Y85.147 E0.01213
G1 X85.669 Y84.827 E0.01213
G1 X85.436 Y84.589 E0.01043
G1 X84.517 Y83.799 E0.03802
G1 X84.406 Y83.634 E0.00621
G1 X84.245 Y83.271 E0.01248
G1 X84.160 Y83.000 E0.00890
G1 X84.050 Y82.425 E0.01835
M204 S1250
G1 X83.636 Y82.040 F9000.000
M204 S800
G1 F1200.000
G1 X83.635 Y82.013 E0.00083
G1 X83.929 Y81.795 E0.01147
G1 X84.315 Y81.921 E0.01272
G1 X84.635 Y82.061 E0.01096
G1 X84.939 Y82.220 E0.01076
G1 X85.216 Y82.396 E0.01030
G1 X85.456 Y82.580 E0.00947
G1 X85.649 Y82.766 E0.00840
G1 X85.772 Y82.929 E0.00641
G1 X86.287 Y84.012 E0.03762
G1 X86.432 Y84.257 E0.00890
G1 X86.640 Y84.498 E0.01001
G1 X86.889 Y84.699 E0.01001
G1 X87.168 Y84.853 E0.01001
G1 X87.471 Y84.954 E0.01001
G1 X87.787 Y85.000 E0.01001
G1 X88.116 Y84.989 E0.01033
G1 X88.873 Y84.798 E0.02446
