; generated by PrusaSlicer 2.3.0+win64 on 2021-05-23 at 12:33:02 UTC


;
;

;
;
; 

; external perimeters extrusion width = 0.40mm
; perimeters extrusion width = 0.40mm
; infill extrusion width = 0.45mm
; solid infill extrusion width = 0.45mm
; top infill extrusion width = 0.40mm
; first layer extrusion width = 0.42mm

M73 P0 R59
M201 X1250 Y1250 Z400 E5000 ; sets maximum accelerations, mm/sec^2
M203 X180 Y180 Z12 E80 ; sets maximum feedrates, mm/sec
M204 P1250 R1250 T1250 ; sets acceleration (P, T) and retract acceleration (R), mm/sec^2
M205 X8.00 Y8.00 Z2.00 E10.00 ; sets the jerk limits, mm/sec
M205 S0 T0 ; sets the minimum extruding and travel feed rate, mm/sec
M107
;TYPE:Custom
G90 ; use absolute coordinates
M83 ; extruder relative mode
M104 S170 ; set extruder temp for bed leveling
M140 S60 ; set bed temp
M109 R170 ; wait for bed leveling temp
M190 S60 ; wait for bed temp
G28 ; home all without mesh bed level
G29 ; mesh bed leveling 
M104 S215 ; set extruder temp
G92 E0.0
G1 Y-2.0 X179 F2400
G1 Z3 F720
M109 S215 ; wait for extruder temp

; intro line
G1 X170 F1000
G1 Z0.2 F720
G1 X110.0 E8.0 F900
G1 X40.0 E10.0 F700
G92 E0.0

M221 S95 ; set flow
G21 ; set units to millimeters
G90 ; use absolute coordinates
M83 ; use relative distances for extrusion
M900 K0.2 ; Filament gcode LA 1.5
; ; Filament gcode LA 1.0
;LAYER_CHANGE
;Z:0.2
;HEIGHT:0.2
;BEFORE_LAYER_CHANGE
G92 E0.0
;0.2


G1 Z0.200 F9000.000
;AFTER_LAYER_CHANGE
;0.2
G1 E-3.20000 F4200.000
G1 Z0.400 F9000.000
G1 X74.522 Y71.883
G1 Z0.200
G1 E3.20000 F2400.000
M204 S800
;TYPE:Skirt
;WIDTH:0.42
G1 F1200.000
G1 X74.995 Y71.532 E0.01846
G1 X75.540 Y71.309 E0.01846
G1 X86.356 Y68.592 E0.34966
G1 X86.926 Y68.524 E0.01799
G1 X88.429 Y68.604 E0.04720
G1 X91.123 Y68.965 E0.08521
G1 X92.544 Y69.273 E0.04562
G1 X95.139 Y70.054 E0.08495
G1 X96.497 Y70.586 E0.04574
G1 X98.938 Y71.770 E0.08507
G1 X100.192 Y72.508 E0.04562
G1 X102.387 Y74.044 E0.08400
G1 X103.535 Y74.992 E0.04669
G1 X105.480 Y76.879 E0.08495
G1 X106.440 Y77.972 E0.04560
G1 X108.033 Y80.103 E0.08342
G1 X111.526 Y85.911 E0.21250
G1 X111.757 Y86.601 E0.02284
G1 X111.768 Y87.334 E0.02296
G1 X108.479 Y98.776 E0.37329
G1 X107.613 Y100.121 E0.05018
G1 X105.913 Y102.320 E0.08711
G1 X104.030 Y104.289 E0.08545
G1 X101.936 Y106.063 E0.08604
G1 X99.614 Y107.643 E0.08807
G1 X97.166 Y108.949 E0.08700
G1 X94.586 Y109.992 E0.08724
G1 X91.970 Y110.741 E0.08533
G1 X90.492 Y111.038 E0.04727
G1 X87.789 Y111.357 E0.08533
G1 X80.854 Y111.453 E0.21748
G1 X80.109 Y111.218 E0.02449
G1 X79.480 Y110.755 E0.02449
G1 X71.699 Y102.723 E0.35062
G1 X71.395 Y102.300 E0.01633
G1 X70.757 Y101.051 E0.04398
G1 X70.161 Y99.704 E0.04620
G1 X69.278 Y97.194 E0.08342
G1 X68.612 Y94.371 E0.09094
G1 X68.279 Y91.736 E0.08328
G1 X68.209 Y90.287 E0.04548
G1 X68.298 Y87.575 E0.08509
G1 X68.459 Y86.129 E0.04560
G1 X69.007 Y83.343 E0.08904
G1 X69.788 Y80.808 E0.08316
G1 X70.320 Y79.463 E0.04536
G1 X71.545 Y76.977 E0.08688
G1 X74.110 Y72.404 E0.16441
G1 X74.485 Y71.930 E0.01895
M204 S1250
; printing object Pawl.stl id:0 copy 0
G1 E-2.24000 F4200.000
;WIPE_START
G1 F7200.000
G1 X74.995 Y71.532 E-0.35854
G1 X75.540 Y71.309 E-0.32634
G1 X75.938 Y71.209 E-0.22712
;WIPE_END
G1 E-0.04800 F4200.000
G1 Z0.400 F9000.000
G1 X85.362 Y85.637
G1 Z0.200
G1 E3.20000 F2400.000
M204 S800
;TYPE:Perimeter
G1 F1200.000
G1 X92.479 Y85.637 E0.22317
G1 X93.229 Y86.469 E0.03511
G1 X93.616 Y87.020 E0.02111
G1 X93.932 Y87.614 E0.02111
G1 X94.174 Y88.243 E0.02111
G1 X94.337 Y88.896 E0.02111
G1 X94.419 Y89.564 E0.02111
G1 X94.419 Y90.238 E0.02111
G1 X94.337 Y90.906 E0.02111
G1 X94.181 Y91.532 E0.02023
G1 X93.934 Y92.186 E0.02191
G1 X93.616 Y92.782 E0.02119
G1 X93.229 Y93.334 E0.02111
G1 X92.479 Y94.165 E0.03511
G1 X85.362 Y94.165 E0.22317
G1 X84.612 Y93.334 E0.03511
G1 X84.225 Y92.782 E0.02111
G1 X83.909 Y92.188 E0.02111
G1 X83.667 Y91.559 E0.02111
G1 X83.504 Y90.906 E0.02111
G1 X83.422 Y90.238 E0.02111
G1 X83.422 Y89.564 E0.02111
G1 X83.504 Y88.896 E0.02111
G1 X83.667 Y88.243 E0.02111
G1 X83.909 Y87.614 E0.02111
G1 X84.225 Y87.020 E0.02111
G1 X84.612 Y86.469 E0.02111
G1 X85.321 Y85.682 E0.03323
M204 S1250
G1 X85.529 Y86.014 F9000.000
M204 S800
G1 F1200.000
G1 X92.312 Y86.014 E0.21266
G1 X92.934 Y86.704 E0.02913
G1 X93.294 Y87.218 E0.01966
G1 X93.589 Y87.771 E0.01966
G1 X93.814 Y88.357 E0.01966
G1 X93.966 Y88.965 E0.01966
G1 X94.042 Y89.588 E0.01966
G1 X94.042 Y90.215 E0.01966
G1 X93.966 Y90.837 E0.01966
G1 X93.820 Y91.419 E0.01882
G1 X93.589 Y92.030 E0.02046
G1 X93.294 Y92.585 E0.01971
G1 X92.934 Y93.098 E0.01966
G1 X92.312 Y93.788 E0.02913
G1 X85.529 Y93.788 E0.21266
G1 X84.907 Y93.098 E0.02913
G1 X84.547 Y92.585 E0.01966
G1 X84.252 Y92.031 E0.01966
G1 X84.027 Y91.446 E0.01966
G1 X83.875 Y90.837 E0.01966
G1 X83.799 Y90.215 E0.01966
G1 X83.799 Y89.588 E0.01966
G1 X83.875 Y88.965 E0.01966
G1 X84.027 Y88.357 E0.01966
G1 X84.252 Y87.771 E0.01966
G1 X84.547 Y87.218 E0.01966
G1 X84.907 Y86.704 E0.01966
G1 X85.489 Y86.059 E0.02725
M204 S1250
G1 X85.697 Y86.391 F9000.000
M204 S800
;TYPE:External perimeter
G1 F1200.000
G1 X92.144 Y86.391 E0.20214
G1 X92.638 Y86.939 E0.02315
G1 X92.972 Y87.415 E0.01822
G1 X93.245 Y87.928 E0.01822
G1 X93.453 Y88.470 E0.01822
G1 X93.594 Y89.034 E0.01822
G1 X93.665 Y89.611 E0.01822
G1 X93.665 Y90.192 E0.01822
G1 X93.594 Y90.768 E0.01822
G1 X93.460 Y91.307 E0.01740
G1 X93.245 Y91.874 E0.01901
G1 X92.972 Y92.387 E0.01823
G1 X92.638 Y92.863 E0.01822
G1 X92.144 Y93.411 E0.02315
G1 X85.697 Y93.411 E0.20214
G1 X85.203 Y92.863 E0.02315
G1 X84.869 Y92.387 E0.01822
G1 X84.596 Y91.874 E0.01822
G1 X84.388 Y91.332 E0.01822
G1 X84.247 Y90.768 E0.01822
G1 X84.176 Y90.192 E0.01822
G1 X84.176 Y89.611 E0.01822
G1 X84.247 Y89.034 E0.01822
G1 X84.388 Y88.470 E0.01822
G1 X84.596 Y87.928 E0.01822
G1 X84.869 Y87.415 E0.01822
G1 X85.203 Y86.939 E0.01822
G1 X85.657 Y86.436 E0.02127
M204 S1250
G1 X85.787 Y86.001 F9000.000
G1 E-2.24000 F4200.000
;WIPE_START
G1 F7200.000
G1 X87.303 Y86.424 E-0.91200
;WIPE_END
G1 E-0.04800 F4200.000
G1 Z0.400 F9000.000
G1 X89.756 Y72.753
G1 Z0.200
G1 E3.20000 F2400.000
M204 S800
;TYPE:Perimeter
G1 F1200.000
G1 X89.756 Y83.517 E0.33752
G1 X91.160 Y83.976 E0.04630
G1 X91.692 Y84.205 E0.01816
G1 X92.200 Y84.482 E0.01816
G1 X92.682 Y84.804 E0.01816
G1 X93.131 Y85.169 E0.01816
G1 X93.546 Y85.573 E0.01816
G1 X93.922 Y86.013 E0.01816
G1 X94.256 Y86.486 E0.01816
G1 X94.545 Y86.988 E0.01816
G1 X94.788 Y87.514 E0.01816
G1 X94.981 Y88.059 E0.01816
G1 X95.124 Y88.621 E0.01816
G1 X95.215 Y89.192 E0.01816
G1 X95.254 Y89.770 E0.01816
G1 X95.239 Y90.349 E0.01816
G1 X95.172 Y90.924 E0.01816
G1 X94.867 Y92.369 E0.04630
G1 X104.730 Y98.064 E0.35709
G1 X104.020 Y99.040 E0.03785
G1 X103.262 Y99.972 E0.03768
G1 X102.455 Y100.863 E0.03768
G1 X101.603 Y101.710 E0.03768
G1 X101.370 Y101.918 E0.00980
G1 X101.946 Y101.197 E0.02894
G1 X103.354 Y99.199 E0.07663
G1 X94.031 Y93.817 E0.33752
G1 X92.932 Y94.804 E0.04630
G1 X92.468 Y95.149 E0.01816
G1 X91.974 Y95.451 E0.01816
G1 X91.454 Y95.707 E0.01816
G1 X90.913 Y95.914 E0.01816
G1 X90.356 Y96.071 E0.01816
G1 X89.787 Y96.176 E0.01816
G1 X89.210 Y96.229 E0.01816
G1 X88.631 Y96.229 E0.01816
G1 X88.054 Y96.176 E0.01816
G1 X87.485 Y96.071 E0.01816
G1 X86.928 Y95.914 E0.01816
G1 X86.387 Y95.707 E0.01816
G1 X85.867 Y95.451 E0.01816
G1 X85.373 Y95.149 E0.01816
G1 X84.909 Y94.804 E0.01816
G1 X83.810 Y93.817 E0.04630
G1 X73.947 Y99.511 E0.35709
G1 X73.457 Y98.408 E0.03785
G1 X73.028 Y97.285 E0.03768
G1 X72.660 Y96.142 E0.03768
G1 X72.353 Y94.980 E0.03768
G1 X72.289 Y94.674 E0.00980
G1 X72.625 Y95.534 E0.02894
G1 X73.652 Y97.752 E0.07663
G1 X82.974 Y92.369 E0.33752
G1 X82.669 Y90.924 E0.04630
G1 X82.602 Y90.349 E0.01816
G1 X82.587 Y89.770 E0.01816
G1 X82.626 Y89.192 E0.01816
G1 X82.717 Y88.621 E0.01816
G1 X82.860 Y88.059 E0.01816
G1 X83.053 Y87.514 E0.01816
G1 X83.296 Y86.988 E0.01816
G1 X83.585 Y86.487 E0.01814
G1 X83.924 Y86.008 E0.01841
G1 X84.295 Y85.573 E0.01792
G1 X84.710 Y85.169 E0.01816
G1 X85.159 Y84.804 E0.01816
G1 X85.641 Y84.482 E0.01816
G1 X86.149 Y84.205 E0.01816
G1 X86.681 Y83.976 E0.01816
G1 X88.085 Y83.517 E0.04630
G1 X88.085 Y72.128 E0.35709
G1 X89.285 Y72.256 E0.03785
G1 X90.472 Y72.446 E0.03768
G1 X91.647 Y72.699 E0.03768
G1 X92.806 Y73.014 E0.03768
G1 X93.103 Y73.111 E0.00980
G1 X92.191 Y72.972 E0.02894
G1 X89.816 Y72.758 E0.07475
M204 S1250
G1 X90.133 Y73.165 F9000.000
M204 S800
G1 F1200.000
G1 X90.133 Y83.244 E0.31600
M73 P1 R59
G1 X91.294 Y83.623 E0.03827
G1 X91.857 Y83.866 E0.01924
G1 X92.396 Y84.159 E0.01924
G1 X92.906 Y84.500 E0.01924
G1 X93.382 Y84.887 E0.01924
G1 X93.822 Y85.315 E0.01924
G1 X94.220 Y85.782 E0.01924
G1 X94.574 Y86.283 E0.01924
G1 X94.881 Y86.814 E0.01924
G1 X95.138 Y87.371 E0.01924
G1 X95.343 Y87.950 E0.01924
G1 X95.494 Y88.544 E0.01924
G1 X95.590 Y89.150 E0.01924
G1 X95.631 Y89.762 E0.01924
G1 X95.616 Y90.376 E0.01924
G1 X95.544 Y90.985 E0.01924
G1 X95.292 Y92.179 E0.03827
G1 X105.263 Y97.936 E0.36098
G1 X105.038 Y98.282 E0.01295
G1 X104.319 Y99.270 E0.03831
G1 X103.548 Y100.218 E0.03831
G1 X102.728 Y101.124 E0.03831
G1 X101.861 Y101.985 E0.03831
G1 X100.950 Y102.799 E0.03831
G1 X99.997 Y103.563 E0.03831
G1 X99.005 Y104.276 E0.03831
G1 X97.976 Y104.935 E0.03831
G1 X96.914 Y105.538 E0.03831
G1 X96.217 Y105.887 E0.02442
G1 X96.451 Y105.749 E0.00852
G1 X97.433 Y105.090 E0.03708
G1 X98.373 Y104.372 E0.03708
G1 X99.267 Y103.598 E0.03708
G1 X100.112 Y102.771 E0.03708
G1 X100.906 Y101.894 E0.03708
G1 X101.645 Y100.971 E0.03708
G1 X102.808 Y99.319 E0.06333
G1 X94.080 Y94.280 E0.31600
G1 X93.171 Y95.096 E0.03827
G1 X92.679 Y95.462 E0.01924
G1 X92.156 Y95.782 E0.01924
G1 X91.605 Y96.053 E0.01924
G1 X91.032 Y96.272 E0.01924
G1 X90.442 Y96.439 E0.01924
G1 X89.838 Y96.550 E0.01924
G1 X89.227 Y96.606 E0.01924
G1 X88.614 Y96.606 E0.01924
G1 X88.003 Y96.550 E0.01924
G1 X87.399 Y96.439 E0.01924
G1 X86.809 Y96.272 E0.01924
G1 X86.236 Y96.053 E0.01924
G1 X85.685 Y95.782 E0.01924
G1 X85.162 Y95.462 E0.01924
G1 X84.670 Y95.096 E0.01924
G1 X83.761 Y94.280 E0.03827
G1 X73.791 Y100.037 E0.36098
G1 X73.604 Y99.669 E0.01295
G1 X73.108 Y98.552 E0.03831
G1 X72.672 Y97.411 E0.03831
G1 X72.298 Y96.248 E0.03831
G1 X71.985 Y95.066 E0.03831
G1 X71.736 Y93.870 E0.03831
G1 X71.551 Y92.663 E0.03831
G1 X71.430 Y91.447 E0.03831
G1 X71.373 Y90.227 E0.03831
G1 X71.382 Y89.005 E0.03831
G1 X71.428 Y88.227 E0.02442
G1 X71.430 Y88.499 E0.00852
G1 X71.510 Y89.679 E0.03708
G1 X71.662 Y90.852 E0.03708
G1 X71.885 Y92.013 E0.03708
G1 X72.179 Y93.159 E0.03708
G1 X72.541 Y94.284 E0.03708
G1 X72.972 Y95.386 E0.03708
G1 X73.820 Y97.219 E0.06333
G1 X82.549 Y92.179 E0.31600
G1 X82.297 Y90.985 E0.03827
G1 X82.225 Y90.376 E0.01924
G1 X82.210 Y89.762 E0.01924
G1 X82.251 Y89.150 E0.01924
G1 X82.347 Y88.544 E0.01924
G1 X82.498 Y87.950 E0.01924
G1 X82.703 Y87.371 E0.01924
G1 X82.960 Y86.814 E0.01924
G1 X83.267 Y86.283 E0.01923
G1 X83.626 Y85.776 E0.01949
G1 X84.019 Y85.315 E0.01900
G1 X84.459 Y84.887 E0.01924
G1 X84.935 Y84.500 E0.01924
G1 X85.445 Y84.159 E0.01924
G1 X85.984 Y83.866 E0.01924
G1 X86.547 Y83.623 E0.01924
G1 X87.708 Y83.244 E0.03827
G1 X87.708 Y71.731 E0.36098
G1 X88.120 Y71.753 E0.01295
G1 X89.335 Y71.882 E0.03831
G1 X90.541 Y72.075 E0.03831
G1 X91.736 Y72.332 E0.03831
G1 X92.915 Y72.652 E0.03831
G1 X94.075 Y73.034 E0.03831
G1 X95.214 Y73.478 E0.03831
G1 X96.327 Y73.981 E0.03831
G1 X97.412 Y74.542 E0.03831
G1 X98.466 Y75.160 E0.03831
G1 X99.116 Y75.589 E0.02442
G1 X98.880 Y75.455 E0.00852
G1 X97.818 Y74.935 E0.03708
G1 X96.726 Y74.480 E0.03708
G1 X95.609 Y74.092 E0.03708
G1 X94.470 Y73.774 E0.03708
G1 X93.314 Y73.525 E0.03708
G1 X92.145 Y73.347 E0.03708
G1 X90.193 Y73.171 E0.06145
M204 S1250
G1 X90.511 Y73.578 F9000.000
M204 S800
;TYPE:External perimeter
G1 F1200.000
G1 X90.511 Y82.970 E0.29449
G1 X91.427 Y83.269 E0.03023
G1 X92.022 Y83.526 E0.02032
G1 X92.591 Y83.836 E0.02032
G1 X93.130 Y84.196 E0.02032
G1 X93.633 Y84.605 E0.02032
G1 X94.097 Y85.057 E0.02032
G1 X94.518 Y85.550 E0.02032
G1 X94.892 Y86.079 E0.02032
G1 X95.216 Y86.641 E0.02032
G1 X95.487 Y87.229 E0.02032
G1 X95.704 Y87.840 E0.02032
G1 X95.864 Y88.468 E0.02032
G1 X95.966 Y89.108 E0.02032
G1 X96.009 Y89.755 E0.02032
G1 X95.992 Y90.403 E0.02032
M73 P1 R58
G1 X95.917 Y91.046 E0.02032
G1 X95.718 Y91.990 E0.03023
G1 X105.796 Y97.808 E0.36486
G1 X105.349 Y98.496 E0.02572
G1 X104.618 Y99.500 E0.03894
G1 X103.834 Y100.463 E0.03894
G1 X103.001 Y101.384 E0.03894
G1 X102.120 Y102.259 E0.03894
G1 X101.194 Y103.086 E0.03894
G1 X100.225 Y103.863 E0.03894
G1 X99.217 Y104.588 E0.03894
G1 X98.171 Y105.258 E0.03894
G1 X97.091 Y105.871 E0.03894
G1 X95.981 Y106.426 E0.03894
G1 X94.842 Y106.922 E0.03894
G1 X93.679 Y107.357 E0.03894
G1 X92.494 Y107.729 E0.03894
G1 X91.289 Y108.039 E0.03901
G1 X90.070 Y108.300 E0.03907
G1 X88.845 Y108.496 E0.03892
G1 X87.609 Y108.620 E0.03893
G1 X86.363 Y108.673 E0.03911
G1 X82.130 Y108.726 E0.13274
G1 X81.784 Y108.710 E0.01085
G1 X81.921 Y108.365 E0.01163
G1 X82.126 Y108.349 E0.00645
G1 X86.369 Y108.296 E0.13303
G1 X87.518 Y108.248 E0.03607
G1 X88.669 Y108.137 E0.03624
G1 X89.812 Y107.962 E0.03627
G1 X90.947 Y107.722 E0.03637
G1 X92.062 Y107.397 E0.03641
G1 X93.152 Y107.002 E0.03637
G1 X94.216 Y106.541 E0.03636
G1 X95.251 Y106.016 E0.03636
G1 X96.251 Y105.430 E0.03636
G1 X97.213 Y104.783 E0.03636
G1 X98.135 Y104.079 E0.03636
G1 X99.012 Y103.320 E0.03636
G1 X99.841 Y102.510 E0.03636
G1 X100.619 Y101.650 E0.03636
G1 X101.343 Y100.744 E0.03636
G1 X102.262 Y99.440 E0.05003
G1 X94.128 Y94.744 E0.29449
G1 X93.410 Y95.388 E0.03023
G1 X92.891 Y95.775 E0.02032
G1 X92.338 Y96.113 E0.02032
G1 X91.756 Y96.399 E0.02032
G1 X91.151 Y96.631 E0.02032
G1 X90.527 Y96.806 E0.02032
G1 X89.890 Y96.924 E0.02032
G1 X89.245 Y96.983 E0.02032
G1 X88.596 Y96.983 E0.02032
G1 X87.951 Y96.924 E0.02032
G1 X87.314 Y96.806 E0.02032
G1 X86.690 Y96.631 E0.02032
G1 X86.085 Y96.399 E0.02032
G1 X85.503 Y96.113 E0.02032
G1 X84.950 Y95.775 E0.02032
G1 X84.431 Y95.388 E0.02032
G1 X83.713 Y94.744 E0.03023
G1 X73.635 Y100.562 E0.36486
G1 X73.263 Y99.831 E0.02572
G1 X72.759 Y98.696 E0.03894
G1 X72.316 Y97.536 E0.03894
G1 X71.936 Y96.354 E0.03894
G1 X71.618 Y95.153 E0.03894
G1 X71.365 Y93.938 E0.03894
G1 X71.177 Y92.710 E0.03894
G1 X71.053 Y91.474 E0.03894
G1 X70.996 Y90.234 E0.03894
G1 X71.005 Y88.992 E0.03894
G1 X71.079 Y87.753 E0.03894
G1 X71.219 Y86.519 E0.03894
G1 X71.425 Y85.294 E0.03894
G1 X71.695 Y84.082 E0.03894
G1 X72.028 Y82.883 E0.03901
G1 X72.412 Y81.698 E0.03907
G1 X72.855 Y80.538 E0.03892
G1 X73.365 Y79.406 E0.03893
G1 X73.942 Y78.300 E0.03911
G1 X76.013 Y74.608 E0.13274
G1 X76.200 Y74.317 E0.01085
G1 X76.430 Y74.608 E0.01163
G1 X76.342 Y74.794 E0.00645
G1 X74.266 Y78.494 E0.13303
G1 X73.732 Y79.513 E0.03607
G1 X73.253 Y80.565 E0.03624
G1 X72.833 Y81.643 E0.03628
G1 X72.465 Y82.779 E0.03745
G1 X72.198 Y83.874 E0.03533
G1 X71.995 Y85.016 E0.03637
G1 X71.862 Y86.168 E0.03636
G1 X71.799 Y87.325 E0.03636
G1 X71.807 Y88.485 E0.03636
G1 X71.886 Y89.642 E0.03636
G1 X72.035 Y90.792 E0.03636
G1 X72.253 Y91.931 E0.03636
G1 X72.541 Y93.054 E0.03636
G1 X72.897 Y94.158 E0.03636
G1 X73.319 Y95.238 E0.03636
G1 X73.989 Y96.686 E0.05003
G1 X82.123 Y91.990 E0.29449
G1 X81.924 Y91.046 E0.03023
G1 X81.849 Y90.403 E0.02032
G1 X81.832 Y89.755 E0.02032
G1 X81.875 Y89.108 E0.02032
G1 X81.977 Y88.468 E0.02032
G1 X82.137 Y87.840 E0.02032
G1 X82.354 Y87.229 E0.02032
G1 X82.625 Y86.641 E0.02032
G1 X82.949 Y86.080 E0.02032
G1 X83.328 Y85.544 E0.02057
G1 X83.744 Y85.057 E0.02007
G1 X84.208 Y84.605 E0.02032
G1 X84.711 Y84.196 E0.02032
G1 X85.250 Y83.836 E0.02032
G1 X85.819 Y83.526 E0.02032
G1 X86.414 Y83.269 E0.02032
G1 X87.331 Y82.970 E0.03023
G1 X87.331 Y71.333 E0.36486
G1 X88.150 Y71.377 E0.02572
G1 X89.385 Y71.508 E0.03894
G1 X90.611 Y71.704 E0.03894
G1 X91.825 Y71.966 E0.03894
G1 X93.023 Y72.291 E0.03894
G1 X94.203 Y72.679 E0.03894
G1 X95.360 Y73.130 E0.03894
G1 X96.491 Y73.641 E0.03894
G1 X97.594 Y74.212 E0.03894
G1 X98.666 Y74.840 E0.03894
G1 X99.702 Y75.524 E0.03894
G1 X100.700 Y76.263 E0.03894
G1 X101.658 Y77.053 E0.03894
G1 X102.573 Y77.893 E0.03894
G1 X103.444 Y78.781 E0.03901
